(.../pcb-gcode-3.6.0.4/pcb-gcode.ulp)
(Copyright 2005 - 2012 by John Johnson)
(See readme.txt for licensing terms.)
(This file generated from the board:)
(.../projects/J2 Retrofit/J2 Retrofit.brd)
(Current profile is .../pcb-gcode-3.6.0.4/profiles/generic.pp  )
(This file generated 6/25/2019 11:16 AM)
(Settings from pcb-machine.h)
(  Tool Size)
(0.3000 )
(Z Axis Settings)
(  High     Up        Down     Drill)
(12.7000 	2.4000 	-0.1000 	-1.7000 )
(spindle on time = 3.0000)
(milling depth = -0.2540)
(text depth = -0.1270)
(tool change at 0.0000 -12.0000 20.0000 )
(feed rate xy = F100.00 )
(feed rate z  = F50.00 )
(Settings from pcb-defaults.h)
(isolate min = 0.0254)
(isolate max = 0.3000)
(isolate step = 0.3000)
(Generated top outlines, top drill, bottom drill, )
(Unit of measure: mm)
(Metric Mode)
G21
(Absolute Coordinates)
G90
G00 X0.0000 Y0.0000 
M03
G04 P3.000000
G00 Z2.4000 
G00 X16.1754 Y114.9075 
G01 Z-0.1000 F50.00 
G01 X16.1754 Y115.0925 F100.00 
G01 X16.1465 Y115.2752 
G01 X16.0893 Y115.4512 
G01 X16.0053 Y115.6160 
G01 X15.8965 Y115.7657 
G01 X15.7657 Y115.8965 
G01 X15.6160 Y116.0053 
G01 X15.4512 Y116.0893 
G01 X15.2752 Y116.1465 
G01 X15.0925 Y116.1754 
G01 X14.9075 Y116.1754 
G01 X14.7248 Y116.1465 
G01 X14.5488 Y116.0893 
G01 X14.3840 Y116.0053 
G01 X14.2343 Y115.8965 
G01 X14.1035 Y115.7657 
G01 X13.9947 Y115.6160 
G01 X13.9107 Y115.4512 
G01 X13.8535 Y115.2752 
G01 X13.8246 Y115.0925 
G01 X13.8246 Y114.9075 
G01 X13.8535 Y114.7248 
G01 X13.9107 Y114.5488 
G01 X13.9947 Y114.3840 
G01 X14.1035 Y114.2343 
G01 X14.2343 Y114.1035 
G01 X14.3840 Y113.9947 
G01 X14.5488 Y113.9107 
G01 X14.7248 Y113.8535 
G01 X14.9075 Y113.8246 
G01 X15.0925 Y113.8246 
G01 X15.2752 Y113.8535 
G01 X15.4512 Y113.9107 
G01 X15.6160 Y113.9947 
G01 X15.7657 Y114.1035 
G01 X15.8965 Y114.2343 
G01 X16.0053 Y114.3840 
G01 X16.0893 Y114.5488 
G01 X16.1465 Y114.7248 
G01 X16.1754 Y114.9075 
G00 Z2.4000 
G00 X100.1754 Y87.9075 
G01 Z-0.1000 F50.00 
G01 X100.1754 Y88.0925 F100.00 
G01 X100.1465 Y88.2752 
G01 X100.0893 Y88.4512 
G01 X100.0053 Y88.6160 
G01 X99.8965 Y88.7657 
G01 X99.7657 Y88.8965 
G01 X99.6160 Y89.0053 
G01 X99.4512 Y89.0893 
G01 X99.2752 Y89.1465 
G01 X99.0925 Y89.1754 
G01 X98.9075 Y89.1754 
G01 X98.7248 Y89.1465 
G01 X98.5488 Y89.0893 
G01 X98.3840 Y89.0053 
G01 X98.2343 Y88.8965 
G01 X98.1035 Y88.7657 
G01 X97.9947 Y88.6160 
G01 X97.9107 Y88.4512 
G01 X97.8535 Y88.2752 
G01 X97.8246 Y88.0925 
G01 X97.8246 Y87.9075 
G01 X97.8535 Y87.7248 
G01 X97.9107 Y87.5488 
G01 X97.9947 Y87.3840 
G01 X98.1035 Y87.2343 
G01 X98.2343 Y87.1035 
G01 X98.3840 Y86.9947 
G01 X98.5488 Y86.9107 
G01 X98.7248 Y86.8535 
G01 X98.9075 Y86.8246 
G01 X99.0925 Y86.8246 
G01 X99.2752 Y86.8535 
G01 X99.4512 Y86.9107 
G01 X99.6160 Y86.9947 
G01 X99.7657 Y87.1035 
G01 X99.8965 Y87.2343 
G01 X100.0053 Y87.3840 
G01 X100.0893 Y87.5488 
G01 X100.1465 Y87.7248 
G01 X100.1754 Y87.9075 
G00 Z2.4000 
G00 X179.1754 Y23.9075 
G01 Z-0.1000 F50.00 
G01 X179.1754 Y24.0925 F100.00 
G01 X179.1465 Y24.2752 
G01 X179.0893 Y24.4512 
G01 X179.0053 Y24.6160 
G01 X178.8965 Y24.7657 
G01 X178.7657 Y24.8965 
G01 X178.6160 Y25.0053 
G01 X178.4512 Y25.0893 
G01 X178.2752 Y25.1465 
G01 X178.0925 Y25.1754 
G01 X177.9075 Y25.1754 
G01 X177.7248 Y25.1465 
G01 X177.5488 Y25.0893 
G01 X177.3840 Y25.0053 
G01 X177.2343 Y24.8965 
G01 X177.1035 Y24.7657 
G01 X176.9947 Y24.6160 
G01 X176.9107 Y24.4512 
G01 X176.8535 Y24.2752 
G01 X176.8246 Y24.0925 
G01 X176.8246 Y23.9075 
G01 X176.8535 Y23.7248 
G01 X176.9107 Y23.5488 
G01 X176.9947 Y23.3840 
G01 X177.1035 Y23.2343 
G01 X177.2343 Y23.1035 
G01 X177.3840 Y22.9947 
G01 X177.5488 Y22.9107 
G01 X177.7248 Y22.8535 
G01 X177.9075 Y22.8246 
G01 X178.0925 Y22.8246 
G01 X178.2752 Y22.8535 
G01 X178.4512 Y22.9107 
G01 X178.6160 Y22.9947 
G01 X178.7657 Y23.1035 
G01 X178.8965 Y23.2343 
G01 X179.0053 Y23.3840 
G01 X179.0893 Y23.5488 
G01 X179.1465 Y23.7248 
G01 X179.1754 Y23.9075 
G00 Z2.4000 
G00 X215.7754 Y52.0075 
G01 Z-0.1000 F50.00 
G01 X215.7754 Y52.1925 F100.00 
G01 X215.7465 Y52.3752 
G01 X215.6893 Y52.5512 
G01 X215.6053 Y52.7160 
G01 X215.4965 Y52.8657 
G01 X215.3657 Y52.9965 
G01 X215.2160 Y53.1053 
G01 X215.0512 Y53.1893 
G01 X214.8752 Y53.2465 
G01 X214.6925 Y53.2754 
G01 X214.5075 Y53.2754 
G01 X214.3248 Y53.2465 
G01 X214.1488 Y53.1893 
G01 X213.9840 Y53.1053 
G01 X213.8343 Y52.9965 
G01 X213.7035 Y52.8657 
G01 X213.5947 Y52.7160 
G01 X213.5107 Y52.5512 
G01 X213.4535 Y52.3752 
G01 X213.4246 Y52.1925 
G01 X213.4246 Y52.0075 
G01 X213.4535 Y51.8248 
G01 X213.5107 Y51.6488 
G01 X213.5947 Y51.4840 
G01 X213.7035 Y51.3343 
G01 X213.8343 Y51.2035 
G01 X213.9840 Y51.0947 
G01 X214.1488 Y51.0107 
G01 X214.3248 Y50.9535 
G01 X214.5075 Y50.9246 
G01 X214.6925 Y50.9246 
G01 X214.8752 Y50.9535 
G01 X215.0512 Y51.0107 
G01 X215.2160 Y51.0947 
G01 X215.3657 Y51.2035 
G01 X215.4965 Y51.3343 
G01 X215.6053 Y51.4840 
G01 X215.6893 Y51.6488 
G01 X215.7465 Y51.8248 
G01 X215.7754 Y52.0075 
G00 Z2.4000 
G00 X129.9267 Y17.4436 
G01 Z-0.1000 F50.00 
G01 X214.0733 Y17.4436 F100.00 
G01 X214.2148 Y17.4815 
G01 X214.3416 Y17.5548 
G01 X217.3416 Y20.5548 
G01 X217.4452 Y20.6584 
G01 X217.5185 Y20.7852 
G01 X217.5564 Y20.9267 
G01 X217.5564 Y74.0733 
G01 X217.5185 Y74.2148 
G01 X217.4452 Y74.3416 
G01 X214.0508 Y77.7360 
G01 X213.9240 Y77.8093 
G01 X213.7824 Y77.8472 
G01 X212.3433 Y77.8472 
G01 X213.3416 Y78.8456 
G01 X213.4452 Y78.9492 
G01 X213.5185 Y79.0760 
G01 X213.5564 Y79.2176 
G01 X213.5564 Y83.0733 
G01 X213.5185 Y83.2148 
G01 X213.4452 Y83.3416 
G01 X213.3416 Y83.4452 
G01 X210.4452 Y86.3416 
G01 X210.3416 Y86.4452 
G01 X210.2148 Y86.5185 
G01 X210.0733 Y86.5564 
G01 X201.9267 Y86.5564 
G01 X201.7852 Y86.5185 
G01 X201.6584 Y86.4452 
G01 X201.5548 Y86.3416 
G01 X198.7695 Y83.5564 
G01 X184.8017 Y83.5564 
G01 X184.6602 Y83.5185 
G01 X184.5334 Y83.4452 
G01 X184.4298 Y83.3416 
G01 X180.9925 Y79.9044 
G01 X179.5691 Y79.9044 
G01 X179.5046 Y79.8777 
G01 X179.4553 Y79.8284 
G01 X179.4286 Y79.7639 
G01 X179.4286 Y77.6941 
G01 X179.4553 Y77.6296 
G01 X179.5046 Y77.5803 
G01 X179.5691 Y77.5536 
G01 X181.6389 Y77.5536 
G01 X181.7034 Y77.5803 
G01 X181.7527 Y77.6296 
G01 X181.7794 Y77.6941 
G01 X181.7794 Y79.1175 
G01 X185.1055 Y82.4436 
G01 X199.0733 Y82.4436 
G01 X199.2148 Y82.4815 
G01 X199.3416 Y82.5548 
G01 X199.4452 Y82.6584 
G01 X202.2305 Y85.4436 
G01 X209.7695 Y85.4436 
G01 X212.4436 Y82.7695 
G01 X212.4436 Y79.5213 
G01 X210.7695 Y77.8472 
G01 X206.8779 Y77.8472 
G01 X206.8636 Y77.8753 
G01 X206.7604 Y78.0173 
G01 X206.6363 Y78.1414 
G01 X206.4943 Y78.2446 
G01 X206.3379 Y78.3243 
G01 X206.1709 Y78.3786 
G01 X205.9975 Y78.4060 
G01 X205.8220 Y78.4060 
G01 X205.6486 Y78.3786 
G01 X205.4817 Y78.3243 
G01 X205.3253 Y78.2446 
G01 X205.1833 Y78.1414 
G01 X205.0592 Y78.0173 
G01 X204.9560 Y77.8753 
G01 X204.8763 Y77.7189 
G01 X204.8220 Y77.5520 
G01 X204.7946 Y77.3786 
G01 X204.7946 Y77.2030 
G01 X204.8220 Y77.0297 
G01 X204.8763 Y76.8627 
G01 X204.9560 Y76.7063 
G01 X205.0592 Y76.5643 
G01 X205.1833 Y76.4402 
G01 X205.3253 Y76.3370 
G01 X205.4817 Y76.2573 
G01 X205.6486 Y76.2031 
G01 X205.8220 Y76.1756 
G01 X205.9975 Y76.1756 
G01 X206.1709 Y76.2031 
G01 X206.3379 Y76.2573 
G01 X206.4943 Y76.3370 
G01 X206.6363 Y76.4402 
G01 X206.7604 Y76.5643 
G01 X206.8636 Y76.7063 
G01 X206.8779 Y76.7344 
G01 X213.4787 Y76.7344 
G01 X216.4436 Y73.7695 
G01 X216.4436 Y21.2305 
G01 X213.7695 Y18.5564 
G01 X130.2305 Y18.5564 
G01 X127.4482 Y21.3386 
G01 X124.7386 Y24.0482 
G01 X124.6118 Y24.1215 
G01 X124.4703 Y24.1594 
G01 X110.6518 Y24.1594 
G01 X106.1594 Y28.6518 
G01 X106.1594 Y30.5913 
G01 X106.1215 Y30.7328 
G01 X106.0482 Y30.8597 
G01 X105.9446 Y30.9633 
G01 X104.0703 Y32.8376 
G01 X103.9667 Y32.9412 
G01 X103.8398 Y33.0145 
G01 X103.6983 Y33.0524 
G01 X100.8817 Y33.0524 
G01 X100.7402 Y33.0145 
G01 X100.6133 Y32.9412 
G01 X99.4324 Y31.7603 
G01 X99.3288 Y31.6567 
G01 X99.2555 Y31.5298 
G01 X99.2176 Y31.3883 
G01 X99.2176 Y29.5717 
G01 X99.2336 Y29.5120 
G01 X99.2336 Y25.5157 
G01 X99.1740 Y25.4853 
G01 X99.0243 Y25.3765 
G01 X98.8935 Y25.2457 
G01 X98.7847 Y25.0960 
G01 X98.7007 Y24.9312 
G01 X98.6435 Y24.7552 
G01 X98.6146 Y24.5725 
G01 X98.6146 Y24.3875 
G01 X98.6435 Y24.2048 
G01 X98.7007 Y24.0288 
G01 X98.7847 Y23.8640 
G01 X98.8935 Y23.7143 
G01 X99.0243 Y23.5835 
G01 X99.1740 Y23.4747 
G01 X99.3388 Y23.3907 
G01 X99.5148 Y23.3335 
G01 X99.6975 Y23.3046 
G01 X99.8825 Y23.3046 
G01 X100.0652 Y23.3335 
G01 X100.2412 Y23.3907 
G01 X100.4060 Y23.4747 
G01 X100.5557 Y23.5835 
G01 X100.6865 Y23.7143 
G01 X100.7953 Y23.8640 
G01 X100.8793 Y24.0288 
G01 X100.9365 Y24.2048 
G01 X100.9654 Y24.3875 
G01 X100.9654 Y24.5725 
G01 X100.9365 Y24.7552 
G01 X100.8793 Y24.9312 
G01 X100.7953 Y25.0960 
G01 X100.6865 Y25.2457 
G01 X100.5557 Y25.3765 
G01 X100.4060 Y25.4853 
G01 X100.3464 Y25.5157 
G01 X100.3464 Y29.7022 
G01 X100.3304 Y29.7619 
G01 X100.3304 Y31.0846 
G01 X101.1854 Y31.9396 
G01 X103.3946 Y31.9396 
G01 X105.0466 Y30.2876 
G01 X105.0466 Y28.3481 
G01 X105.0845 Y28.2066 
G01 X105.1578 Y28.0797 
G01 X109.0781 Y24.1594 
G01 X103.7054 Y24.1594 
G01 X103.5639 Y24.1215 
G01 X103.4370 Y24.0482 
G01 X103.3334 Y23.9446 
G01 X100.9422 Y21.5534 
G01 X98.2578 Y21.5534 
G01 X93.1594 Y26.6518 
G01 X93.1594 Y36.5903 
G01 X93.1215 Y36.7318 
G01 X93.0482 Y36.8586 
G01 X92.9446 Y36.9622 
G01 X89.6125 Y40.2943 
G01 X89.6336 Y40.4002 
G01 X89.6336 Y40.5998 
G01 X89.5946 Y40.7957 
G01 X89.5182 Y40.9801 
G01 X89.4073 Y41.1461 
G01 X89.2661 Y41.2873 
G01 X89.1001 Y41.3982 
G01 X88.9157 Y41.4746 
G01 X88.7198 Y41.5136 
G01 X88.5202 Y41.5136 
G01 X88.3243 Y41.4746 
G01 X88.1399 Y41.3982 
G01 X87.9739 Y41.2873 
G01 X87.8327 Y41.1461 
G01 X87.7218 Y40.9801 
G01 X87.6454 Y40.7957 
G01 X87.6064 Y40.5998 
G01 X87.6064 Y40.4002 
G01 X87.6454 Y40.2043 
G01 X87.7218 Y40.0199 
G01 X87.8327 Y39.8539 
G01 X87.9739 Y39.7127 
G01 X88.1399 Y39.6018 
G01 X88.3243 Y39.5254 
G01 X88.5202 Y39.4864 
G01 X88.7198 Y39.4864 
G01 X88.8257 Y39.5075 
G01 X92.0466 Y36.2865 
G01 X92.0466 Y26.3481 
G01 X92.0845 Y26.2066 
G01 X92.1578 Y26.0797 
G01 X97.5821 Y20.6554 
G01 X97.6857 Y20.5518 
G01 X97.8126 Y20.4785 
G01 X97.9541 Y20.4406 
G01 X101.2459 Y20.4406 
G01 X101.3874 Y20.4785 
G01 X101.5143 Y20.5518 
G01 X104.0091 Y23.0466 
G01 X124.1665 Y23.0466 
G01 X126.6614 Y20.5518 
G01 X129.5548 Y17.6584 
G01 X129.6584 Y17.5548 
G01 X129.7852 Y17.4815 
G01 X129.9267 Y17.4436 
G00 Z2.4000 
G00 X125.4262 Y28.8358 
G01 Z-0.1000 F50.00 
G01 X124.7338 Y28.8358 F100.00 
G01 X124.2442 Y28.3462 
G01 X124.2442 Y27.6538 
G01 X124.7338 Y27.1642 
G01 X125.4262 Y27.1642 
G01 X125.7056 Y27.4436 
G01 X195.1567 Y27.4436 
G01 X195.2982 Y27.4815 
G01 X195.4251 Y27.5548 
G01 X195.5287 Y27.6584 
G01 X198.9184 Y31.0481 
G01 X198.9917 Y31.1750 
G01 X199.0026 Y31.2157 
G01 X199.3416 Y31.5548 
G01 X199.4452 Y31.6584 
G01 X199.5185 Y31.7852 
G01 X199.5564 Y31.9267 
G01 X199.5564 Y61.7695 
G01 X201.8213 Y64.0344 
G01 X202.4017 Y64.0344 
G01 X202.4160 Y64.0063 
G01 X202.5191 Y63.8643 
G01 X202.6433 Y63.7402 
G01 X202.7853 Y63.6370 
G01 X202.9417 Y63.5573 
G01 X203.1086 Y63.5031 
G01 X203.2820 Y63.4756 
G01 X203.4575 Y63.4756 
G01 X203.6309 Y63.5031 
G01 X203.7979 Y63.5573 
G01 X203.9543 Y63.6370 
G01 X204.0963 Y63.7402 
G01 X204.2204 Y63.8643 
G01 X204.3236 Y64.0063 
G01 X204.4033 Y64.1627 
G01 X204.4575 Y64.3297 
G01 X204.4850 Y64.5030 
G01 X204.4850 Y64.6786 
G01 X204.4575 Y64.8520 
G01 X204.4033 Y65.0189 
G01 X204.3236 Y65.1753 
G01 X204.2204 Y65.3173 
G01 X204.0963 Y65.4414 
G01 X203.9543 Y65.5446 
G01 X203.7979 Y65.6243 
G01 X203.6309 Y65.6786 
G01 X203.4575 Y65.7060 
G01 X203.2820 Y65.7060 
G01 X203.1086 Y65.6786 
G01 X202.9417 Y65.6243 
G01 X202.7853 Y65.5446 
G01 X202.6433 Y65.4414 
G01 X202.5191 Y65.3173 
G01 X202.4160 Y65.1753 
G01 X202.4017 Y65.1472 
G01 X201.5176 Y65.1472 
G01 X201.3760 Y65.1093 
G01 X201.2492 Y65.0360 
G01 X198.5548 Y62.3416 
G01 X198.4815 Y62.2148 
G01 X198.4436 Y62.0733 
G01 X198.4436 Y32.2305 
G01 X198.0280 Y31.8148 
G01 X197.9547 Y31.6880 
G01 X197.9438 Y31.6473 
G01 X194.8530 Y28.5564 
G01 X125.7056 Y28.5564 
G01 X125.4262 Y28.8358 
G00 Z2.4000 
G00 X115.7558 Y27.6538 
G01 Z-0.1000 F50.00 
G01 X115.7558 Y28.3462 F100.00 
G01 X115.2662 Y28.8358 
G01 X114.5738 Y28.8358 
G01 X114.2944 Y28.5564 
G01 X110.2305 Y28.5564 
G01 X108.9534 Y29.8335 
G01 X108.9534 Y39.4374 
G01 X108.9155 Y39.5790 
G01 X108.8422 Y39.7058 
G01 X108.7386 Y39.8094 
G01 X105.4064 Y43.1416 
G01 X105.3028 Y43.2452 
G01 X105.1760 Y43.3185 
G01 X105.0344 Y43.3564 
G01 X104.6560 Y43.3564 
G01 X104.5632 Y43.4492 
G01 X104.4263 Y43.5407 
G01 X104.2742 Y43.6037 
G01 X104.1127 Y43.6358 
G01 X102.6273 Y43.6358 
G01 X102.4658 Y43.6037 
G01 X102.3137 Y43.5407 
G01 X102.1768 Y43.4492 
G01 X102.0604 Y43.3328 
G01 X101.9689 Y43.1959 
G01 X101.9059 Y43.0438 
G01 X101.8738 Y42.8823 
G01 X101.8738 Y42.7177 
G01 X101.9059 Y42.5562 
G01 X101.9689 Y42.4041 
G01 X102.0604 Y42.2672 
G01 X102.1768 Y42.1508 
G01 X102.3137 Y42.0593 
G01 X102.4658 Y41.9963 
G01 X102.6273 Y41.9642 
G01 X104.1127 Y41.9642 
G01 X104.2742 Y41.9963 
G01 X104.4263 Y42.0593 
G01 X104.5632 Y42.1508 
G01 X104.6560 Y42.2436 
G01 X104.7307 Y42.2436 
G01 X107.8406 Y39.1337 
G01 X107.8406 Y29.5297 
G01 X107.8785 Y29.3882 
G01 X107.9518 Y29.2614 
G01 X109.6584 Y27.5548 
G01 X109.7852 Y27.4815 
G01 X109.9267 Y27.4436 
G01 X114.2944 Y27.4436 
G01 X114.5738 Y27.1642 
G01 X115.2662 Y27.1642 
G01 X115.7558 Y27.6538 
G00 Z2.4000 
G00 X102.6273 Y44.5042 
G01 Z-0.1000 F50.00 
G01 X104.1127 Y44.5042 F100.00 
G01 X104.2742 Y44.5363 
G01 X104.4263 Y44.5993 
G01 X104.5632 Y44.6908 
G01 X104.6796 Y44.8072 
G01 X104.7711 Y44.9441 
G01 X104.8341 Y45.0962 
G01 X104.8662 Y45.2577 
G01 X104.8662 Y45.4223 
G01 X104.8341 Y45.5838 
G01 X104.7711 Y45.7359 
G01 X104.6796 Y45.8728 
G01 X104.5632 Y45.9892 
G01 X104.4263 Y46.0807 
G01 X104.2742 Y46.1437 
G01 X104.1127 Y46.1758 
G01 X102.6273 Y46.1758 
G01 X102.4658 Y46.1437 
G01 X102.3137 Y46.0807 
G01 X102.1768 Y45.9892 
G01 X102.0840 Y45.8964 
G01 X101.5467 Y45.8964 
G01 X101.4052 Y45.8585 
G01 X101.2784 Y45.7852 
G01 X101.1748 Y45.6816 
G01 X98.4384 Y42.9452 
G01 X98.3348 Y42.8416 
G01 X98.2615 Y42.7148 
G01 X98.2236 Y42.5733 
G01 X98.2236 Y41.3473 
G01 X98.1339 Y41.2873 
G01 X97.9927 Y41.1461 
G01 X97.8818 Y40.9801 
G01 X97.8054 Y40.7957 
G01 X97.7664 Y40.5998 
G01 X97.7664 Y40.4002 
G01 X97.8054 Y40.2043 
G01 X97.8818 Y40.0199 
G01 X97.9927 Y39.8539 
G01 X98.1339 Y39.7127 
G01 X98.2999 Y39.6018 
G01 X98.4843 Y39.5254 
G01 X98.6802 Y39.4864 
G01 X98.8798 Y39.4864 
G01 X99.0757 Y39.5254 
G01 X99.2601 Y39.6018 
G01 X99.4261 Y39.7127 
G01 X99.5673 Y39.8539 
G01 X99.6782 Y40.0199 
G01 X99.7546 Y40.2043 
G01 X99.7936 Y40.4002 
G01 X99.7936 Y40.5998 
G01 X99.7546 Y40.7957 
G01 X99.6782 Y40.9801 
G01 X99.5673 Y41.1461 
G01 X99.4261 Y41.2873 
G01 X99.3364 Y41.3473 
G01 X99.3364 Y42.2695 
G01 X101.8505 Y44.7836 
G01 X102.0840 Y44.7836 
G01 X102.1768 Y44.6908 
G01 X102.3137 Y44.5993 
G01 X102.4658 Y44.5363 
G01 X102.6273 Y44.5042 
G00 Z2.4000 
G00 X88.9654 Y36.3875 
G01 Z-0.1000 F50.00 
G01 X88.9654 Y36.5725 F100.00 
G01 X88.9365 Y36.7552 
G01 X88.8793 Y36.9312 
G01 X88.7953 Y37.0960 
G01 X88.6865 Y37.2457 
G01 X88.5557 Y37.3765 
G01 X88.4060 Y37.4853 
G01 X88.2412 Y37.5693 
G01 X88.0652 Y37.6265 
G01 X87.8825 Y37.6554 
G01 X87.6975 Y37.6554 
G01 X87.5148 Y37.6265 
G01 X87.3388 Y37.5693 
G01 X87.1740 Y37.4853 
G01 X87.0243 Y37.3765 
G01 X86.8935 Y37.2457 
G01 X86.7847 Y37.0960 
G01 X86.7007 Y36.9312 
G01 X86.6435 Y36.7552 
G01 X86.6146 Y36.5725 
G01 X86.6146 Y36.3875 
G01 X86.6435 Y36.2048 
G01 X86.7007 Y36.0288 
G01 X86.7847 Y35.8640 
G01 X86.8935 Y35.7143 
G01 X87.0243 Y35.5835 
G01 X87.1740 Y35.4747 
G01 X87.3388 Y35.3907 
G01 X87.5148 Y35.3335 
G01 X87.6975 Y35.3046 
G01 X87.8825 Y35.3046 
G01 X88.0652 Y35.3335 
G01 X88.2412 Y35.3907 
G01 X88.4060 Y35.4747 
G01 X88.5557 Y35.5835 
G01 X88.6865 Y35.7143 
G01 X88.7953 Y35.8640 
G01 X88.8793 Y36.0288 
G01 X88.9365 Y36.2048 
G01 X88.9654 Y36.3875 
G00 Z2.4000 
G00 X102.9654 Y30.3875 
G01 Z-0.1000 F50.00 
G01 X102.9654 Y30.5725 F100.00 
G01 X102.9365 Y30.7552 
G01 X102.8793 Y30.9312 
G01 X102.7953 Y31.0960 
G01 X102.6865 Y31.2457 
G01 X102.5557 Y31.3765 
G01 X102.4060 Y31.4853 
G01 X102.2412 Y31.5693 
G01 X102.0652 Y31.6265 
G01 X101.8825 Y31.6554 
G01 X101.6975 Y31.6554 
G01 X101.5148 Y31.6265 
G01 X101.3388 Y31.5693 
G01 X101.1740 Y31.4853 
G01 X101.0243 Y31.3765 
G01 X100.8935 Y31.2457 
G01 X100.7847 Y31.0960 
G01 X100.7007 Y30.9312 
G01 X100.6435 Y30.7552 
G01 X100.6146 Y30.5725 
G01 X100.6146 Y30.3875 
G01 X100.6435 Y30.2048 
G01 X100.7007 Y30.0288 
G01 X100.7847 Y29.8640 
G01 X100.8935 Y29.7143 
G01 X101.0243 Y29.5835 
G01 X101.1740 Y29.4747 
G01 X101.3388 Y29.3907 
G01 X101.5148 Y29.3335 
G01 X101.6975 Y29.3046 
G01 X101.8825 Y29.3046 
G01 X102.0652 Y29.3335 
G01 X102.1289 Y29.3542 
G01 X102.4436 Y29.0395 
G01 X102.4436 Y25.0305 
G01 X100.3635 Y22.9504 
G01 X98.8365 Y22.9504 
G01 X94.5564 Y27.2305 
G01 X94.5564 Y41.0733 
G01 X94.5185 Y41.2148 
G01 X94.4452 Y41.3416 
G01 X94.3416 Y41.4452 
G01 X88.5564 Y47.2305 
G01 X88.5564 Y60.7695 
G01 X116.2305 Y88.4436 
G01 X178.0733 Y88.4436 
G01 X178.2148 Y88.4815 
G01 X178.3416 Y88.5548 
G01 X178.4452 Y88.6584 
G01 X181.0492 Y91.2624 
G01 X181.1225 Y91.3892 
G01 X181.1604 Y91.5307 
G01 X181.1604 Y96.0956 
G01 X181.6389 Y96.0956 
G01 X181.7034 Y96.1223 
G01 X181.7527 Y96.1716 
G01 X181.7794 Y96.2361 
G01 X181.7794 Y98.3059 
G01 X181.7527 Y98.3704 
G01 X181.7034 Y98.4197 
G01 X181.6389 Y98.4464 
G01 X181.1604 Y98.4464 
G01 X181.1604 Y98.4693 
G01 X181.1225 Y98.6108 
G01 X181.0492 Y98.7376 
G01 X180.9456 Y98.8412 
G01 X179.3416 Y100.4452 
G01 X179.2148 Y100.5185 
G01 X179.0733 Y100.5564 
G01 X145.9267 Y100.5564 
G01 X145.7852 Y100.5185 
G01 X145.6584 Y100.4452 
G01 X145.5548 Y100.3416 
G01 X144.0000 Y98.7869 
G01 X142.3416 Y100.4452 
G01 X142.2148 Y100.5185 
G01 X142.0733 Y100.5564 
G01 X100.2305 Y100.5564 
G01 X98.3416 Y102.4452 
G01 X92.4452 Y108.3416 
G01 X92.3416 Y108.4452 
G01 X92.2148 Y108.5185 
G01 X92.0733 Y108.5564 
G01 X29.9267 Y108.5564 
G01 X29.7852 Y108.5185 
G01 X29.6584 Y108.4452 
G01 X24.1908 Y102.9776 
G01 X24.1175 Y102.8508 
G01 X24.0796 Y102.7093 
G01 X24.0796 Y99.2374 
G01 X23.3511 Y99.2374 
G01 X23.2866 Y99.2107 
G01 X23.2373 Y99.1614 
G01 X23.2106 Y99.0969 
G01 X23.2106 Y96.5271 
G01 X23.2373 Y96.4626 
G01 X23.2866 Y96.4133 
G01 X23.3511 Y96.3866 
G01 X25.9209 Y96.3866 
G01 X25.9854 Y96.4133 
G01 X26.0347 Y96.4626 
G01 X26.0614 Y96.5271 
G01 X26.0614 Y99.0969 
G01 X26.0347 Y99.1614 
G01 X25.9854 Y99.2107 
G01 X25.9209 Y99.2374 
G01 X25.1924 Y99.2374 
G01 X25.1924 Y102.4055 
G01 X30.2305 Y107.4436 
G01 X91.7695 Y107.4436 
G01 X97.5548 Y101.6584 
G01 X99.5548 Y99.6584 
G01 X99.6584 Y99.5548 
G01 X99.7852 Y99.4815 
G01 X99.9267 Y99.4436 
G01 X141.7695 Y99.4436 
G01 X143.5548 Y97.6584 
G01 X143.6584 Y97.5548 
G01 X145.0476 Y96.1655 
G01 X145.0476 Y95.4464 
G01 X144.5691 Y95.4464 
G01 X144.5046 Y95.4197 
G01 X144.4553 Y95.3704 
G01 X144.4286 Y95.3059 
G01 X144.4286 Y93.2361 
G01 X144.4553 Y93.1716 
G01 X144.5046 Y93.1223 
G01 X144.5691 Y93.0956 
G01 X146.6389 Y93.0956 
G01 X146.7034 Y93.1223 
G01 X146.7527 Y93.1716 
G01 X146.7794 Y93.2361 
G01 X146.7794 Y95.3059 
G01 X146.7527 Y95.3704 
G01 X146.7034 Y95.4197 
G01 X146.6389 Y95.4464 
G01 X146.1604 Y95.4464 
G01 X146.1604 Y96.4693 
G01 X146.1225 Y96.6108 
G01 X146.0492 Y96.7376 
G01 X145.9456 Y96.8412 
G01 X144.7869 Y98.0000 
G01 X146.2305 Y99.4436 
G01 X178.7695 Y99.4436 
G01 X179.7667 Y98.4464 
G01 X179.5691 Y98.4464 
G01 X179.5046 Y98.4197 
G01 X179.4553 Y98.3704 
G01 X179.4286 Y98.3059 
G01 X179.4286 Y96.2361 
G01 X179.4553 Y96.1716 
G01 X179.5046 Y96.1223 
G01 X179.5691 Y96.0956 
G01 X180.0476 Y96.0956 
G01 X180.0476 Y91.8345 
G01 X177.7695 Y89.5564 
G01 X115.9267 Y89.5564 
G01 X115.7852 Y89.5185 
G01 X115.6584 Y89.4452 
G01 X87.6584 Y61.4452 
G01 X87.5548 Y61.3416 
G01 X87.4815 Y61.2148 
G01 X87.4436 Y61.0733 
G01 X87.4436 Y46.9267 
G01 X87.4815 Y46.7852 
G01 X87.5548 Y46.6584 
G01 X87.6584 Y46.5548 
G01 X93.4436 Y40.7695 
G01 X93.4436 Y26.9267 
G01 X93.4815 Y26.7852 
G01 X93.5548 Y26.6584 
G01 X98.1608 Y22.0524 
G01 X98.2644 Y21.9488 
G01 X98.3912 Y21.8755 
G01 X98.5327 Y21.8376 
G01 X100.6673 Y21.8376 
G01 X100.8088 Y21.8755 
G01 X100.9356 Y21.9488 
G01 X101.0392 Y22.0524 
G01 X103.3416 Y24.3548 
G01 X103.4452 Y24.4584 
G01 X103.5185 Y24.5852 
G01 X103.5564 Y24.7267 
G01 X103.5564 Y29.3433 
G01 X103.5185 Y29.4848 
G01 X103.4452 Y29.6116 
G01 X103.3416 Y29.7152 
G01 X102.9158 Y30.1411 
G01 X102.9365 Y30.2048 
G01 X102.9654 Y30.3875 
G00 Z2.4000 
G00 X100.9654 Y36.3875 
G01 Z-0.1000 F50.00 
G01 X100.9654 Y36.5725 F100.00 
G01 X100.9365 Y36.7552 
G01 X100.8793 Y36.9312 
G01 X100.7953 Y37.0960 
G01 X100.6865 Y37.2457 
G01 X100.5557 Y37.3765 
G01 X100.4060 Y37.4853 
G01 X100.2412 Y37.5693 
G01 X100.0652 Y37.6265 
G01 X99.8825 Y37.6554 
G01 X99.6975 Y37.6554 
G01 X99.5148 Y37.6265 
G01 X99.3388 Y37.5693 
G01 X99.1740 Y37.4853 
G01 X99.0243 Y37.3765 
G01 X98.8935 Y37.2457 
G01 X98.7847 Y37.0960 
G01 X98.7007 Y36.9312 
G01 X98.6435 Y36.7552 
G01 X98.6146 Y36.5725 
G01 X98.6146 Y36.3875 
G01 X98.6435 Y36.2048 
G01 X98.7007 Y36.0288 
G01 X98.7847 Y35.8640 
G01 X98.8935 Y35.7143 
G01 X99.0243 Y35.5835 
G01 X99.1740 Y35.4747 
G01 X99.3388 Y35.3907 
G01 X99.5148 Y35.3335 
G01 X99.6975 Y35.3046 
G01 X99.8825 Y35.3046 
G01 X100.0652 Y35.3335 
G01 X100.2412 Y35.3907 
G01 X100.4060 Y35.4747 
G01 X100.5557 Y35.5835 
G01 X100.6865 Y35.7143 
G01 X100.7953 Y35.8640 
G01 X100.8793 Y36.0288 
G01 X100.9365 Y36.2048 
G01 X100.9654 Y36.3875 
G00 Z2.4000 
G00 X88.7953 Y25.0960 
G01 Z-0.1000 F50.00 
G01 X88.6865 Y25.2457 F100.00 
G01 X88.5557 Y25.3765 
G01 X88.4060 Y25.4853 
G01 X88.2412 Y25.5693 
G01 X88.0652 Y25.6265 
G01 X87.8825 Y25.6554 
G01 X87.6975 Y25.6554 
G01 X87.5148 Y25.6265 
G01 X87.3388 Y25.5693 
G01 X87.1740 Y25.4853 
G01 X87.0243 Y25.3765 
G01 X86.8935 Y25.2457 
G01 X86.7847 Y25.0960 
G01 X86.7007 Y24.9312 
G01 X86.6435 Y24.7552 
G01 X86.6146 Y24.5725 
G01 X86.6146 Y24.3875 
G01 X86.6435 Y24.2048 
G01 X86.7007 Y24.0288 
G01 X86.7847 Y23.8640 
G01 X86.8935 Y23.7143 
G01 X87.0243 Y23.5835 
G01 X87.1740 Y23.4747 
G01 X87.3388 Y23.3907 
G01 X87.5148 Y23.3335 
G01 X87.6975 Y23.3046 
G01 X87.8825 Y23.3046 
G01 X88.0652 Y23.3335 
G01 X88.2412 Y23.3907 
G01 X88.4060 Y23.4747 
G01 X88.5557 Y23.5835 
G01 X88.6865 Y23.7143 
G01 X88.7953 Y23.8640 
G01 X88.8257 Y23.9236 
G01 X92.3139 Y23.9236 
G01 X97.5857 Y18.6518 
G01 X97.7126 Y18.5785 
G01 X97.8541 Y18.5406 
G01 X115.6482 Y18.5406 
G01 X118.6410 Y15.5478 
G01 X118.6410 Y10.1073 
G01 X118.6789 Y9.9658 
G01 X118.7522 Y9.8389 
G01 X118.8558 Y9.7353 
G01 X118.9704 Y9.6207 
G01 X118.9704 Y7.7573 
G01 X115.7695 Y4.5564 
G01 X110.2305 Y4.5564 
G01 X109.5564 Y5.2305 
G01 X109.5564 Y6.4996 
G01 X109.5185 Y6.6411 
G01 X109.4452 Y6.7680 
G01 X108.1482 Y8.0650 
G01 X108.1482 Y11.5350 
G01 X109.0572 Y12.4440 
G01 X110.3428 Y12.4440 
G01 X110.4320 Y12.3548 
G01 X110.5589 Y12.2815 
G01 X110.7004 Y12.2436 
G01 X112.3686 Y12.2436 
G01 X112.4237 Y12.1356 
G01 X112.5409 Y11.9742 
G01 X112.6820 Y11.8331 
G01 X112.8434 Y11.7159 
G01 X113.0212 Y11.6253 
G01 X113.2110 Y11.5636 
G01 X113.4080 Y11.5324 
G01 X115.7920 Y11.5324 
G01 X115.9890 Y11.5636 
G01 X116.1788 Y11.6253 
G01 X116.3566 Y11.7159 
G01 X116.5180 Y11.8331 
G01 X116.6591 Y11.9742 
G01 X116.7763 Y12.1356 
G01 X116.8669 Y12.3134 
G01 X116.9286 Y12.5032 
G01 X116.9598 Y12.7002 
G01 X116.9598 Y12.8998 
G01 X116.9286 Y13.0968 
G01 X116.8669 Y13.2866 
G01 X116.7763 Y13.4644 
G01 X116.6591 Y13.6258 
G01 X116.5180 Y13.7669 
G01 X116.3566 Y13.8841 
G01 X116.1788 Y13.9747 
G01 X115.9890 Y14.0364 
G01 X115.7920 Y14.0676 
G01 X113.4080 Y14.0676 
G01 X113.2110 Y14.0364 
G01 X113.0212 Y13.9747 
G01 X112.8434 Y13.8841 
G01 X112.6820 Y13.7669 
G01 X112.5409 Y13.6258 
G01 X112.4237 Y13.4644 
G01 X112.3686 Y13.3564 
G01 X111.0041 Y13.3564 
G01 X110.9149 Y13.4456 
G01 X110.7880 Y13.5189 
G01 X110.6465 Y13.5568 
G01 X108.7535 Y13.5568 
G01 X108.6120 Y13.5189 
G01 X108.4851 Y13.4456 
G01 X107.2502 Y12.2107 
G01 X107.1466 Y12.1071 
G01 X107.0733 Y11.9802 
G01 X107.0354 Y11.8387 
G01 X107.0354 Y7.7613 
G01 X107.0733 Y7.6198 
G01 X107.1466 Y7.4929 
G01 X108.4436 Y6.1959 
G01 X108.4436 Y4.9267 
G01 X108.4815 Y4.7852 
G01 X108.5548 Y4.6584 
G01 X109.5548 Y3.6584 
G01 X109.6584 Y3.5548 
G01 X109.7852 Y3.4815 
G01 X109.9267 Y3.4436 
G01 X116.0733 Y3.4436 
G01 X116.2148 Y3.4815 
G01 X116.3416 Y3.5548 
G01 X119.8684 Y7.0816 
G01 X119.9720 Y7.1852 
G01 X120.0453 Y7.3120 
G01 X120.0832 Y7.4535 
G01 X120.0832 Y9.9244 
G01 X120.0453 Y10.0659 
G01 X119.9720 Y10.1928 
G01 X119.7538 Y10.4110 
G01 X119.7538 Y15.8515 
G01 X119.7159 Y15.9930 
G01 X119.6426 Y16.1199 
G01 X116.2203 Y19.5422 
G01 X116.0934 Y19.6155 
G01 X115.9519 Y19.6534 
G01 X98.1578 Y19.6534 
G01 X92.8860 Y24.9252 
G01 X92.7591 Y24.9985 
G01 X92.6176 Y25.0364 
G01 X88.8257 Y25.0364 
G01 X88.7953 Y25.0960 
G00 Z2.4000 
G00 X142.0291 Y74.5536 
G01 Z-0.1000 F50.00 
G01 X144.0989 Y74.5536 F100.00 
G01 X144.1634 Y74.5803 
G01 X144.2127 Y74.6296 
G01 X144.2394 Y74.6941 
G01 X144.2394 Y76.7639 
G01 X144.2127 Y76.8284 
G01 X144.1634 Y76.8777 
G01 X144.0989 Y76.9044 
G01 X142.0291 Y76.9044 
G01 X141.9646 Y76.8777 
G01 X141.9153 Y76.8284 
G01 X141.8886 Y76.7639 
G01 X141.8886 Y74.6941 
G01 X141.9153 Y74.6296 
G01 X141.9646 Y74.5803 
G01 X142.0291 Y74.5536 
G00 Z2.4000 
G00 X144.5691 Y74.5536 
G01 Z-0.1000 F50.00 
G01 X145.0476 Y74.5536 F100.00 
G01 X145.0476 Y72.8345 
G01 X142.7695 Y70.5564 
G01 X107.9267 Y70.5564 
G01 X107.7852 Y70.5185 
G01 X107.6584 Y70.4452 
G01 X98.6385 Y61.4254 
G01 X96.7151 Y61.4254 
G01 X96.6506 Y61.3987 
G01 X96.6013 Y61.3494 
G01 X96.5746 Y61.2849 
G01 X96.5746 Y58.7151 
G01 X96.6013 Y58.6506 
G01 X96.6506 Y58.6013 
G01 X96.7151 Y58.5746 
G01 X99.2849 Y58.5746 
G01 X99.3494 Y58.6013 
G01 X99.3987 Y58.6506 
G01 X99.4254 Y58.7151 
G01 X99.4254 Y60.6385 
G01 X108.2305 Y69.4436 
G01 X143.0733 Y69.4436 
G01 X143.2148 Y69.4815 
G01 X143.3416 Y69.5548 
G01 X145.9456 Y72.1588 
G01 X146.0492 Y72.2624 
G01 X146.1225 Y72.3892 
G01 X146.1604 Y72.5307 
G01 X146.1604 Y74.5536 
G01 X146.6389 Y74.5536 
G01 X146.7034 Y74.5803 
G01 X146.7527 Y74.6296 
G01 X146.7794 Y74.6941 
G01 X146.7794 Y76.7639 
G01 X146.7527 Y76.8284 
G01 X146.7034 Y76.8777 
G01 X146.6389 Y76.9044 
G01 X144.5691 Y76.9044 
G01 X144.5046 Y76.8777 
G01 X144.4553 Y76.8284 
G01 X144.4286 Y76.7639 
G01 X144.4286 Y74.6941 
G01 X144.4553 Y74.6296 
G01 X144.5046 Y74.5803 
G01 X144.5691 Y74.5536 
G00 Z2.4000 
G00 X142.0291 Y93.0956 
G01 Z-0.1000 F50.00 
G01 X144.0989 Y93.0956 F100.00 
G01 X144.1634 Y93.1223 
G01 X144.2127 Y93.1716 
G01 X144.2394 Y93.2361 
G01 X144.2394 Y95.3059 
G01 X144.2127 Y95.3704 
G01 X144.1634 Y95.4197 
G01 X144.0989 Y95.4464 
G01 X142.0291 Y95.4464 
G01 X141.9646 Y95.4197 
G01 X141.9153 Y95.3704 
G01 X141.8886 Y95.3059 
G01 X141.8886 Y93.2361 
G01 X141.9153 Y93.1716 
G01 X141.9646 Y93.1223 
G01 X142.0291 Y93.0956 
G00 Z2.4000 
G00 X136.1114 Y75.6365 
G01 Z-0.1000 F50.00 
G01 X136.1114 Y75.8215 F100.00 
G01 X136.0825 Y76.0042 
G01 X136.0253 Y76.1802 
G01 X135.9413 Y76.3450 
G01 X135.8325 Y76.4947 
G01 X135.7017 Y76.6255 
G01 X135.5520 Y76.7343 
G01 X135.3872 Y76.8183 
G01 X135.2112 Y76.8755 
G01 X135.0285 Y76.9044 
G01 X134.8435 Y76.9044 
G01 X134.6608 Y76.8755 
G01 X134.4848 Y76.8183 
G01 X134.3200 Y76.7343 
G01 X134.1703 Y76.6255 
G01 X134.0395 Y76.4947 
G01 X133.9307 Y76.3450 
G01 X133.8467 Y76.1802 
G01 X133.7895 Y76.0042 
G01 X133.7606 Y75.8215 
G01 X133.7606 Y75.6365 
G01 X133.7895 Y75.4538 
G01 X133.8467 Y75.2778 
G01 X133.9307 Y75.1130 
G01 X134.0395 Y74.9633 
G01 X134.1703 Y74.8325 
G01 X134.3200 Y74.7237 
G01 X134.4848 Y74.6397 
G01 X134.6608 Y74.5825 
G01 X134.8435 Y74.5536 
G01 X135.0285 Y74.5536 
G01 X135.2112 Y74.5825 
G01 X135.3872 Y74.6397 
G01 X135.5520 Y74.7237 
G01 X135.7017 Y74.8325 
G01 X135.8325 Y74.9633 
G01 X135.9413 Y75.1130 
G01 X136.0253 Y75.2778 
G01 X136.0825 Y75.4538 
G01 X136.1114 Y75.6365 
G00 Z2.4000 
G00 X136.1114 Y94.1785 
G01 Z-0.1000 F50.00 
G01 X136.1114 Y94.3635 F100.00 
G01 X136.0825 Y94.5462 
G01 X136.0253 Y94.7222 
G01 X135.9413 Y94.8870 
G01 X135.8325 Y95.0367 
G01 X135.7017 Y95.1675 
G01 X135.5520 Y95.2763 
G01 X135.3872 Y95.3603 
G01 X135.2112 Y95.4175 
G01 X135.0285 Y95.4464 
G01 X134.8435 Y95.4464 
G01 X134.6608 Y95.4175 
G01 X134.4848 Y95.3603 
G01 X134.3200 Y95.2763 
G01 X134.1703 Y95.1675 
G01 X134.0395 Y95.0367 
G01 X133.9307 Y94.8870 
G01 X133.8467 Y94.7222 
G01 X133.7895 Y94.5462 
G01 X133.7606 Y94.3635 
G01 X133.7606 Y94.1785 
G01 X133.7895 Y93.9958 
G01 X133.8467 Y93.8198 
G01 X133.9307 Y93.6550 
G01 X134.0395 Y93.5053 
G01 X134.1703 Y93.3745 
G01 X134.3200 Y93.2657 
G01 X134.4848 Y93.1817 
G01 X134.6608 Y93.1245 
G01 X134.8435 Y93.0956 
G01 X135.0285 Y93.0956 
G01 X135.2112 Y93.1245 
G01 X135.3872 Y93.1817 
G01 X135.5520 Y93.2657 
G01 X135.7017 Y93.3745 
G01 X135.8325 Y93.5053 
G01 X135.9413 Y93.6550 
G01 X136.0253 Y93.8198 
G01 X136.0825 Y93.9958 
G01 X136.1114 Y94.1785 
G00 Z2.4000 
G00 X133.5714 Y75.6365 
G01 Z-0.1000 F50.00 
G01 X133.5714 Y75.8215 F100.00 
G01 X133.5425 Y76.0042 
G01 X133.4853 Y76.1802 
G01 X133.4013 Y76.3450 
G01 X133.2925 Y76.4947 
G01 X133.1617 Y76.6255 
G01 X133.0120 Y76.7343 
G01 X132.8472 Y76.8183 
G01 X132.6712 Y76.8755 
G01 X132.4885 Y76.9044 
G01 X132.3035 Y76.9044 
G01 X132.1208 Y76.8755 
G01 X131.9448 Y76.8183 
G01 X131.7800 Y76.7343 
G01 X131.6303 Y76.6255 
G01 X131.4995 Y76.4947 
G01 X131.3907 Y76.3450 
G01 X131.3067 Y76.1802 
G01 X131.2495 Y76.0042 
G01 X131.2206 Y75.8215 
G01 X131.2206 Y75.6365 
G01 X131.2495 Y75.4538 
G01 X131.3067 Y75.2778 
G01 X131.3907 Y75.1130 
G01 X131.4995 Y74.9633 
G01 X131.6303 Y74.8325 
G01 X131.7800 Y74.7237 
G01 X131.8396 Y74.6933 
G01 X131.8396 Y73.6265 
G01 X130.1665 Y71.9534 
G01 X107.3481 Y71.9534 
G01 X107.2066 Y71.9155 
G01 X107.0797 Y71.8422 
G01 X106.9761 Y71.7386 
G01 X98.0599 Y62.8224 
G01 X94.1927 Y62.8224 
G01 X94.0512 Y62.7845 
G01 X93.9244 Y62.7112 
G01 X93.8208 Y62.6076 
G01 X92.6385 Y61.4254 
G01 X90.7151 Y61.4254 
G01 X90.6506 Y61.3987 
G01 X90.6013 Y61.3494 
G01 X90.5746 Y61.2849 
G01 X90.5746 Y58.7151 
G01 X90.6013 Y58.6506 
G01 X90.6506 Y58.6013 
G01 X90.7151 Y58.5746 
G01 X93.2849 Y58.5746 
G01 X93.3494 Y58.6013 
G01 X93.3987 Y58.6506 
G01 X93.4254 Y58.7151 
G01 X93.4254 Y60.6385 
G01 X94.4965 Y61.7096 
G01 X98.3636 Y61.7096 
G01 X98.5051 Y61.7475 
G01 X98.6320 Y61.8208 
G01 X107.6518 Y70.8406 
G01 X130.4702 Y70.8406 
G01 X130.6118 Y70.8785 
G01 X130.7386 Y70.9518 
G01 X132.8412 Y73.0544 
G01 X132.9145 Y73.1812 
G01 X132.9524 Y73.3227 
G01 X132.9524 Y74.6933 
G01 X133.0120 Y74.7237 
G01 X133.1617 Y74.8325 
G01 X133.2925 Y74.9633 
G01 X133.4013 Y75.1130 
G01 X133.4853 Y75.2778 
G01 X133.5425 Y75.4538 
G01 X133.5714 Y75.6365 
G00 Z2.4000 
G00 X108.5324 Y10.9920 
G01 Z-0.1000 F50.00 
G01 X108.5324 Y8.6080 F100.00 
G01 X108.5636 Y8.4110 
G01 X108.6253 Y8.2212 
G01 X108.7159 Y8.0434 
G01 X108.8331 Y7.8820 
G01 X108.9742 Y7.7409 
G01 X109.1356 Y7.6237 
G01 X109.3134 Y7.5331 
G01 X109.5032 Y7.4714 
G01 X109.7002 Y7.4402 
G01 X109.8998 Y7.4402 
G01 X110.0968 Y7.4714 
G01 X110.2866 Y7.5331 
G01 X110.4644 Y7.6237 
G01 X110.6258 Y7.7409 
G01 X110.7669 Y7.8820 
G01 X110.8841 Y8.0434 
G01 X110.9747 Y8.2212 
G01 X111.0364 Y8.4110 
G01 X111.0676 Y8.6080 
G01 X111.0676 Y10.9920 
G01 X111.0364 Y11.1890 
G01 X110.9747 Y11.3788 
G01 X110.8841 Y11.5566 
G01 X110.7669 Y11.7180 
G01 X110.6258 Y11.8591 
G01 X110.4644 Y11.9763 
G01 X110.2866 Y12.0669 
G01 X110.0968 Y12.1286 
G01 X109.8998 Y12.1598 
G01 X109.7002 Y12.1598 
G01 X109.5032 Y12.1286 
G01 X109.3134 Y12.0669 
G01 X109.1356 Y11.9763 
G01 X108.9742 Y11.8591 
G01 X108.8331 Y11.7180 
G01 X108.7159 Y11.5566 
G01 X108.6253 Y11.3788 
G01 X108.5636 Y11.1890 
G01 X108.5324 Y10.9920 
G00 Z2.4000 
G00 X48.6920 Y13.8676 
G01 Z-0.1000 F50.00 
G01 X46.3080 Y13.8676 F100.00 
G01 X46.1110 Y13.8364 
G01 X45.9212 Y13.7747 
G01 X45.7434 Y13.6841 
G01 X45.5820 Y13.5669 
G01 X45.4409 Y13.4258 
G01 X45.4073 Y13.3795 
G01 X42.4266 Y16.3603 
G01 X42.4266 Y17.2621 
G01 X42.3887 Y17.4037 
G01 X42.3154 Y17.5305 
G01 X40.1073 Y19.7386 
G01 X40.0037 Y19.8422 
G01 X39.8769 Y19.9155 
G01 X39.7353 Y19.9534 
G01 X23.8091 Y19.9534 
G01 X20.9534 Y22.8091 
G01 X20.9534 Y27.6519 
G01 X20.9155 Y27.7934 
G01 X20.8422 Y27.9203 
G01 X18.5564 Y30.2061 
G01 X18.5564 Y48.7695 
G01 X25.0812 Y55.2944 
G01 X25.1545 Y55.4212 
G01 X25.1924 Y55.5627 
G01 X25.1924 Y56.7626 
G01 X25.9209 Y56.7626 
G01 X25.9854 Y56.7893 
G01 X26.0347 Y56.8386 
G01 X26.0614 Y56.9031 
G01 X26.0614 Y59.4729 
G01 X26.0347 Y59.5374 
G01 X25.9854 Y59.5867 
G01 X25.9209 Y59.6134 
G01 X23.3511 Y59.6134 
G01 X23.2866 Y59.5867 
G01 X23.2373 Y59.5374 
G01 X23.2106 Y59.4729 
G01 X23.2106 Y56.9031 
G01 X23.2373 Y56.8386 
G01 X23.2866 Y56.7893 
G01 X23.3511 Y56.7626 
G01 X24.0796 Y56.7626 
G01 X24.0796 Y55.8665 
G01 X17.5548 Y49.3416 
G01 X17.4815 Y49.2148 
G01 X17.4436 Y49.0733 
G01 X17.4436 Y29.9024 
G01 X17.4815 Y29.7609 
G01 X17.5548 Y29.6340 
G01 X17.6584 Y29.5304 
G01 X19.8406 Y27.3482 
G01 X19.8406 Y22.5054 
G01 X19.8785 Y22.3639 
G01 X19.9518 Y22.2370 
G01 X23.2370 Y18.9518 
G01 X23.3639 Y18.8785 
G01 X23.5054 Y18.8406 
G01 X39.4316 Y18.8406 
G01 X41.3138 Y16.9584 
G01 X41.3138 Y16.0565 
G01 X41.3517 Y15.9150 
G01 X41.4250 Y15.7882 
G01 X45.0584 Y12.1548 
G01 X45.1852 Y12.0815 
G01 X45.2595 Y12.0616 
G01 X45.3237 Y11.9356 
G01 X45.4409 Y11.7742 
G01 X45.5820 Y11.6331 
G01 X45.7434 Y11.5159 
G01 X45.9212 Y11.4253 
G01 X46.1110 Y11.3636 
G01 X46.3080 Y11.3324 
G01 X48.6920 Y11.3324 
G01 X48.8890 Y11.3636 
G01 X49.0788 Y11.4253 
G01 X49.2566 Y11.5159 
G01 X49.4180 Y11.6331 
G01 X49.5591 Y11.7742 
G01 X49.6763 Y11.9356 
G01 X49.7669 Y12.1134 
G01 X49.8286 Y12.3032 
G01 X49.8598 Y12.5002 
G01 X49.8598 Y12.6998 
G01 X49.8286 Y12.8968 
G01 X49.7669 Y13.0866 
G01 X49.6763 Y13.2644 
G01 X49.5591 Y13.4258 
G01 X49.4180 Y13.5669 
G01 X49.2566 Y13.6841 
G01 X49.0788 Y13.7747 
G01 X48.8890 Y13.8364 
G01 X48.6920 Y13.8676 
G00 Z2.4000 
G00 X41.4324 Y10.7920 
G01 Z-0.1000 F50.00 
G01 X41.4324 Y8.4080 F100.00 
G01 X41.4636 Y8.2110 
G01 X41.5253 Y8.0212 
G01 X41.6159 Y7.8434 
G01 X41.7331 Y7.6820 
G01 X41.8742 Y7.5409 
G01 X42.0356 Y7.4237 
G01 X42.2134 Y7.3331 
G01 X42.4032 Y7.2714 
G01 X42.6002 Y7.2402 
G01 X42.7998 Y7.2402 
G01 X42.9968 Y7.2714 
G01 X43.1866 Y7.3331 
G01 X43.3644 Y7.4237 
G01 X43.5258 Y7.5409 
G01 X43.6669 Y7.6820 
G01 X43.7841 Y7.8434 
G01 X43.8747 Y8.0212 
G01 X43.9364 Y8.2110 
G01 X43.9676 Y8.4080 
G01 X43.9676 Y10.7920 
G01 X43.9364 Y10.9890 
G01 X43.8747 Y11.1788 
G01 X43.7841 Y11.3566 
G01 X43.6669 Y11.5180 
G01 X43.5258 Y11.6591 
G01 X43.3644 Y11.7763 
G01 X43.1866 Y11.8669 
G01 X42.9968 Y11.9286 
G01 X42.7998 Y11.9598 
G01 X42.6002 Y11.9598 
G01 X42.4032 Y11.9286 
G01 X42.2134 Y11.8669 
G01 X42.0356 Y11.7763 
G01 X41.8742 Y11.6591 
G01 X41.7331 Y11.5180 
G01 X41.6159 Y11.3566 
G01 X41.5253 Y11.1788 
G01 X41.4636 Y10.9890 
G01 X41.4324 Y10.7920 
G00 Z2.4000 
G00 X177.0291 Y77.5536 
G01 Z-0.1000 F50.00 
G01 X179.0989 Y77.5536 F100.00 
G01 X179.1634 Y77.5803 
G01 X179.2127 Y77.6296 
G01 X179.2394 Y77.6941 
G01 X179.2394 Y79.7639 
G01 X179.2127 Y79.8284 
G01 X179.1634 Y79.8777 
G01 X179.0989 Y79.9044 
G01 X177.0291 Y79.9044 
G01 X176.9646 Y79.8777 
G01 X176.9153 Y79.8284 
G01 X176.8886 Y79.7639 
G01 X176.8886 Y77.6941 
G01 X176.9153 Y77.6296 
G01 X176.9646 Y77.5803 
G01 X177.0291 Y77.5536 
G00 Z2.4000 
G00 X177.0291 Y96.0956 
G01 Z-0.1000 F50.00 
G01 X179.0989 Y96.0956 F100.00 
G01 X179.1634 Y96.1223 
G01 X179.2127 Y96.1716 
G01 X179.2394 Y96.2361 
G01 X179.2394 Y98.3059 
G01 X179.2127 Y98.3704 
G01 X179.1634 Y98.4197 
G01 X179.0989 Y98.4464 
G01 X177.0291 Y98.4464 
G01 X176.9646 Y98.4197 
G01 X176.9153 Y98.3704 
G01 X176.8886 Y98.3059 
G01 X176.8886 Y96.2361 
G01 X176.9153 Y96.1716 
G01 X176.9646 Y96.1223 
G01 X177.0291 Y96.0956 
G00 Z2.4000 
G00 X171.1114 Y78.6365 
G01 Z-0.1000 F50.00 
G01 X171.1114 Y78.8215 F100.00 
G01 X171.0825 Y79.0042 
G01 X171.0253 Y79.1802 
G01 X170.9413 Y79.3450 
G01 X170.8325 Y79.4947 
G01 X170.7017 Y79.6255 
G01 X170.5520 Y79.7343 
G01 X170.3872 Y79.8183 
G01 X170.2112 Y79.8755 
G01 X170.0285 Y79.9044 
G01 X169.8435 Y79.9044 
G01 X169.6608 Y79.8755 
G01 X169.4848 Y79.8183 
G01 X169.3200 Y79.7343 
G01 X169.1703 Y79.6255 
G01 X169.0395 Y79.4947 
G01 X168.9307 Y79.3450 
G01 X168.8467 Y79.1802 
G01 X168.7895 Y79.0042 
G01 X168.7606 Y78.8215 
G01 X168.7606 Y78.6365 
G01 X168.7895 Y78.4538 
G01 X168.8467 Y78.2778 
G01 X168.9307 Y78.1130 
G01 X169.0395 Y77.9633 
G01 X169.1703 Y77.8325 
G01 X169.3200 Y77.7237 
G01 X169.4848 Y77.6397 
G01 X169.6608 Y77.5825 
G01 X169.8435 Y77.5536 
G01 X170.0285 Y77.5536 
G01 X170.2112 Y77.5825 
G01 X170.3872 Y77.6397 
G01 X170.5520 Y77.7237 
G01 X170.7017 Y77.8325 
G01 X170.8325 Y77.9633 
G01 X170.9413 Y78.1130 
G01 X171.0253 Y78.2778 
G01 X171.0825 Y78.4538 
G01 X171.1114 Y78.6365 
G00 Z2.4000 
G00 X171.1114 Y97.1785 
G01 Z-0.1000 F50.00 
G01 X171.1114 Y97.3635 F100.00 
G01 X171.0825 Y97.5462 
G01 X171.0253 Y97.7222 
G01 X170.9413 Y97.8870 
G01 X170.8325 Y98.0367 
G01 X170.7017 Y98.1675 
G01 X170.5520 Y98.2763 
G01 X170.3872 Y98.3603 
G01 X170.2112 Y98.4175 
G01 X170.0285 Y98.4464 
G01 X169.8435 Y98.4464 
G01 X169.6608 Y98.4175 
G01 X169.4848 Y98.3603 
G01 X169.3200 Y98.2763 
G01 X169.1703 Y98.1675 
G01 X169.0395 Y98.0367 
G01 X168.9307 Y97.8870 
G01 X168.8467 Y97.7222 
G01 X168.7895 Y97.5462 
G01 X168.7606 Y97.3635 
G01 X168.7606 Y97.1785 
G01 X168.7895 Y96.9958 
G01 X168.8467 Y96.8198 
G01 X168.9307 Y96.6550 
G01 X169.0395 Y96.5053 
G01 X169.1703 Y96.3745 
G01 X169.3200 Y96.2657 
G01 X169.4848 Y96.1817 
G01 X169.6608 Y96.1245 
G01 X169.8435 Y96.0956 
G01 X170.0285 Y96.0956 
G01 X170.2112 Y96.1245 
G01 X170.3872 Y96.1817 
G01 X170.5520 Y96.2657 
G01 X170.7017 Y96.3745 
G01 X170.8325 Y96.5053 
G01 X170.9413 Y96.6550 
G01 X171.0253 Y96.8198 
G01 X171.0825 Y96.9958 
G01 X171.1114 Y97.1785 
G00 Z2.4000 
G00 X207.0250 Y28.9430 
G01 Z-0.1000 F50.00 
G01 X207.0250 Y29.1186 F100.00 
G01 X206.9975 Y29.2920 
G01 X206.9433 Y29.4589 
G01 X206.8636 Y29.6153 
G01 X206.7604 Y29.7573 
G01 X206.6363 Y29.8814 
G01 X206.4943 Y29.9846 
G01 X206.3379 Y30.0643 
G01 X206.1709 Y30.1186 
G01 X205.9975 Y30.1460 
G01 X205.8220 Y30.1460 
G01 X205.6486 Y30.1186 
G01 X205.4817 Y30.0643 
G01 X205.3253 Y29.9846 
G01 X205.1833 Y29.8814 
G01 X205.0592 Y29.7573 
G01 X204.9560 Y29.6153 
G01 X204.8763 Y29.4589 
G01 X204.8220 Y29.2920 
G01 X204.7946 Y29.1186 
G01 X204.7946 Y28.9430 
G01 X204.8220 Y28.7697 
G01 X204.8763 Y28.6027 
G01 X204.9560 Y28.4463 
G01 X205.0592 Y28.3043 
G01 X205.1833 Y28.1802 
G01 X205.3253 Y28.0770 
G01 X205.4817 Y27.9973 
G01 X205.6486 Y27.9431 
G01 X205.8220 Y27.9156 
G01 X205.9975 Y27.9156 
G01 X206.1709 Y27.9431 
G01 X206.3379 Y27.9973 
G01 X206.4943 Y28.0770 
G01 X206.6363 Y28.1802 
G01 X206.7604 Y28.3043 
G01 X206.8636 Y28.4463 
G01 X206.9433 Y28.6027 
G01 X206.9975 Y28.7697 
G01 X207.0250 Y28.9430 
G00 Z2.4000 
G00 X204.4850 Y28.9430 
G01 Z-0.1000 F50.00 
G01 X204.4850 Y29.1186 F100.00 
G01 X204.4575 Y29.2920 
G01 X204.4033 Y29.4589 
G01 X204.3236 Y29.6153 
G01 X204.2204 Y29.7573 
G01 X204.0963 Y29.8814 
G01 X203.9543 Y29.9846 
G01 X203.7979 Y30.0643 
G01 X203.6309 Y30.1186 
G01 X203.4575 Y30.1460 
G01 X203.2820 Y30.1460 
G01 X203.1086 Y30.1186 
G01 X202.9417 Y30.0643 
G01 X202.7853 Y29.9846 
G01 X202.6433 Y29.8814 
G01 X202.5191 Y29.7573 
G01 X202.4160 Y29.6153 
G01 X202.3363 Y29.4589 
G01 X202.2820 Y29.2920 
G01 X202.2546 Y29.1186 
G01 X202.2546 Y28.9430 
G01 X202.2820 Y28.7697 
G01 X202.3363 Y28.6027 
G01 X202.4160 Y28.4463 
G01 X202.5191 Y28.3043 
G01 X202.6433 Y28.1802 
G01 X202.7853 Y28.0770 
G01 X202.9417 Y27.9973 
G01 X203.1086 Y27.9431 
G01 X203.2820 Y27.9156 
G01 X203.4575 Y27.9156 
G01 X203.6309 Y27.9431 
G01 X203.7979 Y27.9973 
G01 X203.9543 Y28.0770 
G01 X204.0963 Y28.1802 
G01 X204.2204 Y28.3043 
G01 X204.3236 Y28.4463 
G01 X204.4033 Y28.6027 
G01 X204.4575 Y28.7697 
G01 X204.4850 Y28.9430 
G00 Z2.4000 
G00 X207.0250 Y31.4830 
G01 Z-0.1000 F50.00 
G01 X207.0250 Y31.6586 F100.00 
G01 X206.9975 Y31.8320 
G01 X206.9433 Y31.9989 
G01 X206.8636 Y32.1553 
G01 X206.7604 Y32.2973 
G01 X206.6363 Y32.4214 
G01 X206.4943 Y32.5246 
G01 X206.3379 Y32.6043 
G01 X206.1709 Y32.6585 
G01 X205.9975 Y32.6860 
G01 X205.8220 Y32.6860 
G01 X205.6486 Y32.6585 
G01 X205.4817 Y32.6043 
G01 X205.3253 Y32.5246 
G01 X205.1833 Y32.4214 
G01 X205.0592 Y32.2973 
G01 X204.9560 Y32.1553 
G01 X204.8763 Y31.9989 
G01 X204.8220 Y31.8320 
G01 X204.7946 Y31.6586 
G01 X204.7946 Y31.4830 
G01 X204.8220 Y31.3097 
G01 X204.8763 Y31.1427 
G01 X204.9560 Y30.9863 
G01 X205.0592 Y30.8443 
G01 X205.1833 Y30.7202 
G01 X205.3253 Y30.6170 
G01 X205.4817 Y30.5373 
G01 X205.6486 Y30.4831 
G01 X205.8220 Y30.4556 
G01 X205.9975 Y30.4556 
G01 X206.1709 Y30.4831 
G01 X206.3379 Y30.5373 
G01 X206.4943 Y30.6170 
G01 X206.6363 Y30.7202 
G01 X206.7604 Y30.8443 
G01 X206.8636 Y30.9863 
G01 X206.9433 Y31.1427 
G01 X206.9975 Y31.3097 
G01 X207.0250 Y31.4830 
G00 Z2.4000 
G00 X204.4850 Y31.4830 
G01 Z-0.1000 F50.00 
G01 X204.4850 Y31.6586 F100.00 
G01 X204.4575 Y31.8320 
G01 X204.4033 Y31.9989 
G01 X204.3236 Y32.1553 
G01 X204.2204 Y32.2973 
G01 X204.0963 Y32.4214 
G01 X203.9543 Y32.5246 
G01 X203.7979 Y32.6043 
G01 X203.6309 Y32.6585 
G01 X203.4575 Y32.6860 
G01 X203.2820 Y32.6860 
G01 X203.1086 Y32.6585 
G01 X202.9417 Y32.6043 
G01 X202.7853 Y32.5246 
G01 X202.6433 Y32.4214 
G01 X202.5191 Y32.2973 
G01 X202.4160 Y32.1553 
G01 X202.3363 Y31.9989 
G01 X202.2820 Y31.8320 
G01 X202.2546 Y31.6586 
G01 X202.2546 Y31.4830 
G01 X202.2820 Y31.3097 
G01 X202.3363 Y31.1427 
G01 X202.4160 Y30.9863 
G01 X202.5191 Y30.8443 
G01 X202.6433 Y30.7202 
G01 X202.7853 Y30.6170 
G01 X202.9417 Y30.5373 
G01 X203.1086 Y30.4831 
G01 X203.2820 Y30.4556 
G01 X203.4575 Y30.4556 
G01 X203.6309 Y30.4831 
G01 X203.7979 Y30.5373 
G01 X203.9543 Y30.6170 
G01 X204.0963 Y30.7202 
G01 X204.2204 Y30.8443 
G01 X204.3236 Y30.9863 
G01 X204.4033 Y31.1427 
G01 X204.4575 Y31.3097 
G01 X204.4850 Y31.4830 
G00 Z2.4000 
G00 X207.0250 Y34.0230 
G01 Z-0.1000 F50.00 
G01 X207.0250 Y34.1986 F100.00 
G01 X206.9975 Y34.3720 
G01 X206.9433 Y34.5389 
G01 X206.8636 Y34.6953 
G01 X206.7604 Y34.8373 
G01 X206.6363 Y34.9614 
G01 X206.4943 Y35.0646 
G01 X206.3379 Y35.1443 
G01 X206.1709 Y35.1986 
G01 X205.9975 Y35.2260 
G01 X205.8220 Y35.2260 
G01 X205.6486 Y35.1986 
G01 X205.4817 Y35.1443 
G01 X205.3253 Y35.0646 
G01 X205.1833 Y34.9614 
G01 X205.0592 Y34.8373 
G01 X204.9560 Y34.6953 
G01 X204.8763 Y34.5389 
G01 X204.8220 Y34.3720 
G01 X204.7946 Y34.1986 
G01 X204.7946 Y34.0230 
G01 X204.8220 Y33.8497 
G01 X204.8763 Y33.6827 
G01 X204.9560 Y33.5263 
G01 X205.0592 Y33.3843 
G01 X205.1833 Y33.2602 
G01 X205.3253 Y33.1570 
G01 X205.4817 Y33.0773 
G01 X205.6486 Y33.0231 
G01 X205.8220 Y32.9956 
G01 X205.9975 Y32.9956 
G01 X206.1709 Y33.0231 
G01 X206.3379 Y33.0773 
G01 X206.4943 Y33.1570 
G01 X206.6363 Y33.2602 
G01 X206.7604 Y33.3843 
G01 X206.8636 Y33.5263 
G01 X206.9433 Y33.6827 
G01 X206.9975 Y33.8497 
G01 X207.0250 Y34.0230 
G00 Z2.4000 
G00 X204.4850 Y34.0230 
G01 Z-0.1000 F50.00 
G01 X204.4850 Y34.1986 F100.00 
G01 X204.4575 Y34.3720 
G01 X204.4033 Y34.5389 
G01 X204.3236 Y34.6953 
G01 X204.2204 Y34.8373 
G01 X204.0963 Y34.9614 
G01 X203.9543 Y35.0646 
G01 X203.7979 Y35.1443 
G01 X203.6309 Y35.1986 
G01 X203.4575 Y35.2260 
G01 X203.2820 Y35.2260 
G01 X203.1086 Y35.1986 
G01 X202.9417 Y35.1443 
G01 X202.7853 Y35.0646 
G01 X202.6433 Y34.9614 
G01 X202.5191 Y34.8373 
G01 X202.4160 Y34.6953 
G01 X202.3363 Y34.5389 
G01 X202.2820 Y34.3720 
G01 X202.2546 Y34.1986 
G01 X202.2546 Y34.0230 
G01 X202.2820 Y33.8497 
G01 X202.3363 Y33.6827 
G01 X202.4160 Y33.5263 
G01 X202.5191 Y33.3843 
G01 X202.6433 Y33.2602 
G01 X202.7853 Y33.1570 
G01 X202.9417 Y33.0773 
G01 X203.1086 Y33.0231 
G01 X203.2820 Y32.9956 
G01 X203.4575 Y32.9956 
G01 X203.6309 Y33.0231 
G01 X203.7979 Y33.0773 
G01 X203.9543 Y33.1570 
G01 X204.0963 Y33.2602 
G01 X204.2204 Y33.3843 
G01 X204.3236 Y33.5263 
G01 X204.4033 Y33.6827 
G01 X204.4575 Y33.8497 
G01 X204.4850 Y34.0230 
G00 Z2.4000 
G00 X207.0250 Y36.5630 
G01 Z-0.1000 F50.00 
G01 X207.0250 Y36.7386 F100.00 
G01 X206.9975 Y36.9120 
G01 X206.9433 Y37.0789 
G01 X206.8636 Y37.2353 
G01 X206.7604 Y37.3773 
G01 X206.6363 Y37.5014 
G01 X206.4943 Y37.6046 
G01 X206.3379 Y37.6843 
G01 X206.1709 Y37.7386 
G01 X205.9975 Y37.7660 
G01 X205.8220 Y37.7660 
G01 X205.6486 Y37.7386 
G01 X205.4817 Y37.6843 
G01 X205.3253 Y37.6046 
G01 X205.1833 Y37.5014 
G01 X205.0592 Y37.3773 
G01 X204.9560 Y37.2353 
G01 X204.8763 Y37.0789 
G01 X204.8220 Y36.9120 
G01 X204.7946 Y36.7386 
G01 X204.7946 Y36.5630 
G01 X204.8220 Y36.3897 
G01 X204.8763 Y36.2227 
G01 X204.9560 Y36.0663 
G01 X205.0592 Y35.9243 
G01 X205.1833 Y35.8002 
G01 X205.3253 Y35.6970 
G01 X205.4817 Y35.6173 
G01 X205.6486 Y35.5631 
G01 X205.8220 Y35.5356 
G01 X205.9975 Y35.5356 
G01 X206.1709 Y35.5631 
G01 X206.3379 Y35.6173 
G01 X206.4943 Y35.6970 
G01 X206.6363 Y35.8002 
G01 X206.7604 Y35.9243 
G01 X206.8636 Y36.0663 
G01 X206.9433 Y36.2227 
G01 X206.9975 Y36.3897 
G01 X207.0250 Y36.5630 
G00 Z2.4000 
G00 X204.4850 Y36.5630 
G01 Z-0.1000 F50.00 
G01 X204.4850 Y36.7386 F100.00 
G01 X204.4575 Y36.9120 
G01 X204.4033 Y37.0789 
G01 X204.3236 Y37.2353 
G01 X204.2204 Y37.3773 
G01 X204.0963 Y37.5014 
G01 X203.9543 Y37.6046 
G01 X203.7979 Y37.6843 
G01 X203.6309 Y37.7386 
G01 X203.4575 Y37.7660 
G01 X203.2820 Y37.7660 
G01 X203.1086 Y37.7386 
G01 X202.9417 Y37.6843 
G01 X202.7853 Y37.6046 
G01 X202.6433 Y37.5014 
G01 X202.5191 Y37.3773 
G01 X202.4160 Y37.2353 
G01 X202.3363 Y37.0789 
G01 X202.2820 Y36.9120 
G01 X202.2546 Y36.7386 
G01 X202.2546 Y36.5630 
G01 X202.2820 Y36.3897 
G01 X202.3363 Y36.2227 
G01 X202.4160 Y36.0663 
G01 X202.5191 Y35.9243 
G01 X202.6433 Y35.8002 
G01 X202.7853 Y35.6970 
G01 X202.9417 Y35.6173 
G01 X203.1086 Y35.5631 
G01 X203.2820 Y35.5356 
G01 X203.4575 Y35.5356 
G01 X203.6309 Y35.5631 
G01 X203.7979 Y35.6173 
G01 X203.9543 Y35.6970 
G01 X204.0963 Y35.8002 
G01 X204.2204 Y35.9243 
G01 X204.3236 Y36.0663 
G01 X204.4033 Y36.2227 
G01 X204.4575 Y36.3897 
G01 X204.4850 Y36.5630 
G00 Z2.4000 
G00 X207.0250 Y39.1030 
G01 Z-0.1000 F50.00 
G01 X207.0250 Y39.2786 F100.00 
G01 X206.9975 Y39.4520 
G01 X206.9433 Y39.6189 
G01 X206.8636 Y39.7753 
G01 X206.7604 Y39.9173 
G01 X206.6363 Y40.0414 
G01 X206.4943 Y40.1446 
G01 X206.3379 Y40.2243 
G01 X206.1709 Y40.2786 
G01 X205.9975 Y40.3060 
G01 X205.8220 Y40.3060 
G01 X205.6486 Y40.2786 
G01 X205.4817 Y40.2243 
G01 X205.3253 Y40.1446 
G01 X205.1833 Y40.0414 
G01 X205.0592 Y39.9173 
G01 X204.9560 Y39.7753 
G01 X204.8763 Y39.6189 
G01 X204.8220 Y39.4520 
G01 X204.7946 Y39.2786 
G01 X204.7946 Y39.1030 
G01 X204.8220 Y38.9297 
G01 X204.8763 Y38.7627 
G01 X204.9560 Y38.6063 
G01 X205.0592 Y38.4643 
G01 X205.1833 Y38.3402 
G01 X205.3253 Y38.2370 
G01 X205.4817 Y38.1573 
G01 X205.6486 Y38.1031 
G01 X205.8220 Y38.0756 
G01 X205.9975 Y38.0756 
G01 X206.1709 Y38.1031 
G01 X206.3379 Y38.1573 
G01 X206.4943 Y38.2370 
G01 X206.6363 Y38.3402 
G01 X206.7604 Y38.4643 
G01 X206.8636 Y38.6063 
G01 X206.9433 Y38.7627 
G01 X206.9975 Y38.9297 
G01 X207.0250 Y39.1030 
G00 Z2.4000 
G00 X204.4850 Y39.1030 
G01 Z-0.1000 F50.00 
G01 X204.4850 Y39.2786 F100.00 
G01 X204.4575 Y39.4520 
G01 X204.4033 Y39.6189 
G01 X204.3236 Y39.7753 
G01 X204.2204 Y39.9173 
G01 X204.0963 Y40.0414 
G01 X203.9543 Y40.1446 
G01 X203.7979 Y40.2243 
G01 X203.6309 Y40.2786 
G01 X203.4575 Y40.3060 
G01 X203.2820 Y40.3060 
G01 X203.1086 Y40.2786 
G01 X202.9417 Y40.2243 
G01 X202.7853 Y40.1446 
G01 X202.6433 Y40.0414 
G01 X202.5191 Y39.9173 
G01 X202.4160 Y39.7753 
G01 X202.3363 Y39.6189 
G01 X202.2820 Y39.4520 
G01 X202.2546 Y39.2786 
G01 X202.2546 Y39.1030 
G01 X202.2820 Y38.9297 
G01 X202.3363 Y38.7627 
G01 X202.4160 Y38.6063 
G01 X202.5191 Y38.4643 
G01 X202.6433 Y38.3402 
G01 X202.7853 Y38.2370 
G01 X202.9417 Y38.1573 
G01 X203.1086 Y38.1031 
G01 X203.2820 Y38.0756 
G01 X203.4575 Y38.0756 
G01 X203.6309 Y38.1031 
G01 X203.7979 Y38.1573 
G01 X203.9543 Y38.2370 
G01 X204.0963 Y38.3402 
G01 X204.2204 Y38.4643 
G01 X204.3236 Y38.6063 
G01 X204.4033 Y38.7627 
G01 X204.4575 Y38.9297 
G01 X204.4850 Y39.1030 
G00 Z2.4000 
G00 X207.0250 Y41.6430 
G01 Z-0.1000 F50.00 
G01 X207.0250 Y41.8186 F100.00 
G01 X206.9975 Y41.9920 
G01 X206.9433 Y42.1589 
G01 X206.8636 Y42.3153 
G01 X206.7604 Y42.4573 
G01 X206.6363 Y42.5814 
G01 X206.4943 Y42.6846 
G01 X206.3379 Y42.7643 
G01 X206.1709 Y42.8186 
G01 X205.9975 Y42.8460 
G01 X205.8220 Y42.8460 
G01 X205.6486 Y42.8186 
G01 X205.4817 Y42.7643 
G01 X205.3253 Y42.6846 
G01 X205.1833 Y42.5814 
G01 X205.0592 Y42.4573 
G01 X204.9560 Y42.3153 
G01 X204.8763 Y42.1589 
G01 X204.8220 Y41.9920 
G01 X204.7946 Y41.8186 
G01 X204.7946 Y41.6430 
G01 X204.8220 Y41.4697 
G01 X204.8763 Y41.3027 
G01 X204.9560 Y41.1463 
G01 X205.0592 Y41.0043 
G01 X205.1833 Y40.8802 
G01 X205.3253 Y40.7770 
G01 X205.4817 Y40.6973 
G01 X205.6486 Y40.6431 
G01 X205.8220 Y40.6156 
G01 X205.9975 Y40.6156 
G01 X206.1709 Y40.6431 
G01 X206.3379 Y40.6973 
G01 X206.4943 Y40.7770 
G01 X206.6363 Y40.8802 
G01 X206.7604 Y41.0043 
G01 X206.8636 Y41.1463 
G01 X206.9433 Y41.3027 
G01 X206.9975 Y41.4697 
G01 X207.0250 Y41.6430 
G00 Z2.4000 
G00 X204.4850 Y41.6430 
G01 Z-0.1000 F50.00 
G01 X204.4850 Y41.8186 F100.00 
G01 X204.4575 Y41.9920 
G01 X204.4033 Y42.1589 
G01 X204.3236 Y42.3153 
G01 X204.2204 Y42.4573 
G01 X204.0963 Y42.5814 
G01 X203.9543 Y42.6846 
G01 X203.7979 Y42.7643 
G01 X203.6309 Y42.8186 
G01 X203.4575 Y42.8460 
G01 X203.2820 Y42.8460 
G01 X203.1086 Y42.8186 
G01 X202.9417 Y42.7643 
G01 X202.7853 Y42.6846 
G01 X202.6433 Y42.5814 
G01 X202.5191 Y42.4573 
G01 X202.4160 Y42.3153 
G01 X202.3363 Y42.1589 
G01 X202.2820 Y41.9920 
G01 X202.2546 Y41.8186 
G01 X202.2546 Y41.6430 
G01 X202.2820 Y41.4697 
G01 X202.3363 Y41.3027 
G01 X202.4160 Y41.1463 
G01 X202.5191 Y41.0043 
G01 X202.6433 Y40.8802 
G01 X202.7853 Y40.7770 
G01 X202.9417 Y40.6973 
G01 X203.1086 Y40.6431 
G01 X203.2820 Y40.6156 
G01 X203.4575 Y40.6156 
G01 X203.6309 Y40.6431 
G01 X203.7979 Y40.6973 
G01 X203.9543 Y40.7770 
G01 X204.0963 Y40.8802 
G01 X204.2204 Y41.0043 
G01 X204.3236 Y41.1463 
G01 X204.4033 Y41.3027 
G01 X204.4575 Y41.4697 
G01 X204.4850 Y41.6430 
G00 Z2.4000 
G00 X207.0250 Y44.1830 
G01 Z-0.1000 F50.00 
G01 X207.0250 Y44.3586 F100.00 
G01 X206.9975 Y44.5320 
G01 X206.9433 Y44.6989 
G01 X206.8636 Y44.8553 
G01 X206.7604 Y44.9973 
G01 X206.6363 Y45.1214 
G01 X206.4943 Y45.2246 
G01 X206.3379 Y45.3043 
G01 X206.1709 Y45.3586 
G01 X205.9975 Y45.3860 
G01 X205.8220 Y45.3860 
G01 X205.6486 Y45.3586 
G01 X205.4817 Y45.3043 
G01 X205.3253 Y45.2246 
G01 X205.1833 Y45.1214 
G01 X205.0592 Y44.9973 
G01 X204.9560 Y44.8553 
G01 X204.8763 Y44.6989 
G01 X204.8220 Y44.5320 
G01 X204.7946 Y44.3586 
G01 X204.7946 Y44.1830 
G01 X204.8220 Y44.0097 
G01 X204.8763 Y43.8427 
G01 X204.9560 Y43.6863 
G01 X205.0592 Y43.5443 
G01 X205.1833 Y43.4202 
G01 X205.3253 Y43.3170 
G01 X205.4817 Y43.2373 
G01 X205.6486 Y43.1831 
G01 X205.8220 Y43.1556 
G01 X205.9975 Y43.1556 
G01 X206.1709 Y43.1831 
G01 X206.3379 Y43.2373 
G01 X206.4943 Y43.3170 
G01 X206.6363 Y43.4202 
G01 X206.7604 Y43.5443 
G01 X206.8636 Y43.6863 
G01 X206.9433 Y43.8427 
G01 X206.9975 Y44.0097 
G01 X207.0250 Y44.1830 
G00 Z2.4000 
G00 X204.4850 Y44.1830 
G01 Z-0.1000 F50.00 
G01 X204.4850 Y44.3586 F100.00 
G01 X204.4575 Y44.5320 
G01 X204.4033 Y44.6989 
G01 X204.3236 Y44.8553 
G01 X204.2204 Y44.9973 
G01 X204.0963 Y45.1214 
G01 X203.9543 Y45.2246 
G01 X203.7979 Y45.3043 
G01 X203.6309 Y45.3586 
G01 X203.4575 Y45.3860 
G01 X203.2820 Y45.3860 
G01 X203.1086 Y45.3586 
G01 X202.9417 Y45.3043 
G01 X202.7853 Y45.2246 
G01 X202.6433 Y45.1214 
G01 X202.5191 Y44.9973 
G01 X202.4160 Y44.8553 
G01 X202.3363 Y44.6989 
G01 X202.2820 Y44.5320 
G01 X202.2546 Y44.3586 
G01 X202.2546 Y44.1830 
G01 X202.2820 Y44.0097 
G01 X202.3363 Y43.8427 
G01 X202.4160 Y43.6863 
G01 X202.5191 Y43.5443 
G01 X202.6433 Y43.4202 
G01 X202.7853 Y43.3170 
G01 X202.9417 Y43.2373 
G01 X203.1086 Y43.1831 
G01 X203.2820 Y43.1556 
G01 X203.4575 Y43.1556 
G01 X203.6309 Y43.1831 
G01 X203.7979 Y43.2373 
G01 X203.9543 Y43.3170 
G01 X204.0963 Y43.4202 
G01 X204.2204 Y43.5443 
G01 X204.3236 Y43.6863 
G01 X204.4033 Y43.8427 
G01 X204.4575 Y44.0097 
G01 X204.4850 Y44.1830 
G00 Z2.4000 
G00 X207.0250 Y74.6630 
G01 Z-0.1000 F50.00 
G01 X207.0250 Y74.8386 F100.00 
G01 X206.9975 Y75.0120 
G01 X206.9433 Y75.1789 
G01 X206.8636 Y75.3353 
G01 X206.7604 Y75.4773 
G01 X206.6363 Y75.6014 
G01 X206.4943 Y75.7046 
G01 X206.3379 Y75.7843 
G01 X206.1709 Y75.8385 
G01 X205.9975 Y75.8660 
G01 X205.8220 Y75.8660 
G01 X205.6486 Y75.8385 
G01 X205.4817 Y75.7843 
G01 X205.3253 Y75.7046 
G01 X205.1833 Y75.6014 
G01 X205.0592 Y75.4773 
G01 X204.9560 Y75.3353 
G01 X204.8763 Y75.1789 
G01 X204.8220 Y75.0120 
G01 X204.7946 Y74.8386 
G01 X204.7946 Y74.6630 
G01 X204.8220 Y74.4897 
G01 X204.8763 Y74.3227 
G01 X204.9560 Y74.1663 
G01 X205.0592 Y74.0243 
G01 X205.1833 Y73.9002 
G01 X205.3253 Y73.7970 
G01 X205.4817 Y73.7173 
G01 X205.6486 Y73.6631 
G01 X205.8220 Y73.6356 
G01 X205.9975 Y73.6356 
G01 X206.1709 Y73.6631 
G01 X206.3379 Y73.7173 
G01 X206.4943 Y73.7970 
G01 X206.6363 Y73.9002 
G01 X206.7604 Y74.0243 
G01 X206.8636 Y74.1663 
G01 X206.9433 Y74.3227 
G01 X206.9975 Y74.4897 
G01 X207.0250 Y74.6630 
G00 Z2.4000 
G00 X206.8636 Y72.7953 
G01 Z-0.1000 F50.00 
G01 X206.7604 Y72.9373 F100.00 
G01 X206.6363 Y73.0614 
G01 X206.4943 Y73.1646 
G01 X206.3379 Y73.2443 
G01 X206.1709 Y73.2986 
G01 X205.9975 Y73.3260 
G01 X205.8220 Y73.3260 
G01 X205.6486 Y73.2986 
G01 X205.4817 Y73.2443 
G01 X205.3253 Y73.1646 
G01 X205.1833 Y73.0614 
G01 X205.0592 Y72.9373 
G01 X204.9560 Y72.7953 
G01 X204.8763 Y72.6389 
G01 X204.8220 Y72.4720 
G01 X204.7946 Y72.2986 
G01 X204.7946 Y72.1230 
G01 X204.8220 Y71.9497 
G01 X204.8763 Y71.7827 
G01 X204.9560 Y71.6263 
G01 X205.0592 Y71.4843 
G01 X205.1833 Y71.3602 
G01 X205.3253 Y71.2570 
G01 X205.4817 Y71.1773 
G01 X205.6486 Y71.1231 
G01 X205.8220 Y71.0956 
G01 X205.9975 Y71.0956 
G01 X206.1709 Y71.1231 
G01 X206.3379 Y71.1773 
G01 X206.4943 Y71.2570 
G01 X206.6363 Y71.3602 
G01 X206.7604 Y71.4843 
G01 X206.8636 Y71.6263 
G01 X206.8779 Y71.6544 
G01 X209.5587 Y71.6544 
G01 X211.4436 Y69.7695 
G01 X211.4436 Y28.5346 
G01 X209.7614 Y26.8523 
G01 X209.6578 Y26.7487 
G01 X209.5845 Y26.6219 
G01 X209.5466 Y26.4803 
G01 X209.5466 Y23.3335 
G01 X206.1665 Y19.9534 
G01 X130.8335 Y19.9534 
G01 X125.3416 Y25.4452 
G01 X125.2148 Y25.5185 
G01 X125.0733 Y25.5564 
G01 X111.2305 Y25.5564 
G01 X107.5564 Y29.2305 
G01 X107.5564 Y35.2632 
G01 X107.5185 Y35.4048 
G01 X107.4452 Y35.5316 
G01 X103.9264 Y39.0505 
G01 X103.9264 Y39.4242 
G01 X104.1127 Y39.4242 
G01 X104.2742 Y39.4563 
G01 X104.4263 Y39.5193 
G01 X104.5632 Y39.6108 
G01 X104.6796 Y39.7272 
G01 X104.7711 Y39.8641 
G01 X104.8341 Y40.0162 
G01 X104.8662 Y40.1777 
G01 X104.8662 Y40.3423 
G01 X104.8341 Y40.5038 
G01 X104.7711 Y40.6559 
G01 X104.6796 Y40.7928 
G01 X104.5632 Y40.9092 
G01 X104.4263 Y41.0007 
G01 X104.2742 Y41.0637 
G01 X104.1127 Y41.0958 
G01 X102.6273 Y41.0958 
G01 X102.4658 Y41.0637 
G01 X102.3137 Y41.0007 
G01 X102.1768 Y40.9092 
G01 X102.0604 Y40.7928 
G01 X101.9689 Y40.6559 
G01 X101.9059 Y40.5038 
G01 X101.8738 Y40.3423 
G01 X101.8738 Y40.1777 
G01 X101.9059 Y40.0162 
G01 X101.9689 Y39.8641 
G01 X102.0604 Y39.7272 
G01 X102.1768 Y39.6108 
G01 X102.3137 Y39.5193 
G01 X102.4658 Y39.4563 
G01 X102.6273 Y39.4242 
G01 X102.8136 Y39.4242 
G01 X102.8136 Y38.7467 
G01 X102.8515 Y38.6052 
G01 X102.9248 Y38.4784 
G01 X103.0284 Y38.3748 
G01 X106.4436 Y34.9595 
G01 X106.4436 Y28.9267 
G01 X106.4815 Y28.7852 
G01 X106.5548 Y28.6584 
G01 X110.5548 Y24.6584 
G01 X110.6584 Y24.5548 
G01 X110.7852 Y24.4815 
G01 X110.9267 Y24.4436 
G01 X124.7695 Y24.4436 
G01 X130.1578 Y19.0554 
G01 X130.2614 Y18.9518 
G01 X130.3882 Y18.8785 
G01 X130.5297 Y18.8406 
G01 X206.4703 Y18.8406 
G01 X206.6118 Y18.8785 
G01 X206.7386 Y18.9518 
G01 X206.8422 Y19.0554 
G01 X210.5482 Y22.7614 
G01 X210.6215 Y22.8882 
G01 X210.6594 Y23.0297 
G01 X210.6594 Y26.1766 
G01 X212.3416 Y27.8589 
G01 X212.4452 Y27.9625 
G01 X212.5185 Y28.0893 
G01 X212.5564 Y28.2308 
G01 X212.5564 Y70.0733 
G01 X212.5185 Y70.2148 
G01 X212.4452 Y70.3416 
G01 X210.1308 Y72.6560 
G01 X210.0040 Y72.7293 
G01 X209.8624 Y72.7672 
G01 X206.8779 Y72.7672 
G01 X206.8636 Y72.7953 
G00 Z2.4000 
G00 X207.0250 Y69.5830 
G01 Z-0.1000 F50.00 
G01 X207.0250 Y69.7586 F100.00 
G01 X206.9975 Y69.9320 
G01 X206.9433 Y70.0989 
G01 X206.8636 Y70.2553 
G01 X206.7604 Y70.3973 
G01 X206.6363 Y70.5214 
G01 X206.4943 Y70.6246 
G01 X206.3379 Y70.7043 
G01 X206.1709 Y70.7585 
G01 X205.9975 Y70.7860 
G01 X205.8220 Y70.7860 
G01 X205.6486 Y70.7585 
G01 X205.4817 Y70.7043 
G01 X205.3253 Y70.6246 
G01 X205.1833 Y70.5214 
G01 X205.0592 Y70.3973 
G01 X204.9560 Y70.2553 
G01 X204.8763 Y70.0989 
G01 X204.8220 Y69.9320 
G01 X204.7946 Y69.7586 
G01 X204.7946 Y69.5830 
G01 X204.8220 Y69.4097 
G01 X204.8763 Y69.2427 
G01 X204.9560 Y69.0863 
G01 X205.0592 Y68.9443 
G01 X205.1833 Y68.8202 
G01 X205.3253 Y68.7170 
G01 X205.4817 Y68.6373 
G01 X205.6486 Y68.5831 
G01 X205.8220 Y68.5556 
G01 X205.9975 Y68.5556 
G01 X206.1709 Y68.5831 
G01 X206.3379 Y68.6373 
G01 X206.4943 Y68.7170 
G01 X206.6363 Y68.8202 
G01 X206.7604 Y68.9443 
G01 X206.8636 Y69.0863 
G01 X206.9433 Y69.2427 
G01 X206.9975 Y69.4097 
G01 X207.0250 Y69.5830 
G00 Z2.4000 
G00 X207.0250 Y67.0430 
G01 Z-0.1000 F50.00 
G01 X207.0250 Y67.2186 F100.00 
G01 X206.9975 Y67.3920 
G01 X206.9433 Y67.5589 
G01 X206.8636 Y67.7153 
G01 X206.7604 Y67.8573 
G01 X206.6363 Y67.9814 
G01 X206.4943 Y68.0846 
G01 X206.3379 Y68.1643 
G01 X206.1709 Y68.2186 
G01 X205.9975 Y68.2460 
G01 X205.8220 Y68.2460 
G01 X205.6486 Y68.2186 
G01 X205.4817 Y68.1643 
G01 X205.3253 Y68.0846 
G01 X205.1833 Y67.9814 
G01 X205.0592 Y67.8573 
G01 X204.9560 Y67.7153 
G01 X204.8763 Y67.5589 
G01 X204.8220 Y67.3920 
G01 X204.7946 Y67.2186 
G01 X204.7946 Y67.0430 
G01 X204.8220 Y66.8697 
G01 X204.8763 Y66.7027 
G01 X204.9560 Y66.5463 
G01 X205.0592 Y66.4043 
G01 X205.1833 Y66.2802 
G01 X205.3253 Y66.1770 
G01 X205.4817 Y66.0973 
G01 X205.6486 Y66.0431 
G01 X205.8220 Y66.0156 
G01 X205.9975 Y66.0156 
G01 X206.1709 Y66.0431 
G01 X206.3379 Y66.0973 
G01 X206.4943 Y66.1770 
G01 X206.6363 Y66.2802 
G01 X206.7604 Y66.4043 
G01 X206.8636 Y66.5463 
G01 X206.9433 Y66.7027 
G01 X206.9975 Y66.8697 
G01 X207.0250 Y67.0430 
G00 Z2.4000 
G00 X207.0250 Y64.5030 
G01 Z-0.1000 F50.00 
G01 X207.0250 Y64.6786 F100.00 
G01 X206.9975 Y64.8520 
G01 X206.9433 Y65.0189 
G01 X206.8636 Y65.1753 
G01 X206.7604 Y65.3173 
G01 X206.6363 Y65.4414 
G01 X206.4943 Y65.5446 
G01 X206.3379 Y65.6243 
G01 X206.1709 Y65.6786 
G01 X205.9975 Y65.7060 
G01 X205.8220 Y65.7060 
G01 X205.6486 Y65.6786 
G01 X205.4817 Y65.6243 
G01 X205.3253 Y65.5446 
G01 X205.1833 Y65.4414 
G01 X205.0592 Y65.3173 
G01 X204.9560 Y65.1753 
G01 X204.8763 Y65.0189 
G01 X204.8220 Y64.8520 
G01 X204.7946 Y64.6786 
G01 X204.7946 Y64.5030 
G01 X204.8220 Y64.3297 
G01 X204.8763 Y64.1627 
G01 X204.9560 Y64.0063 
G01 X205.0592 Y63.8643 
G01 X205.1833 Y63.7402 
G01 X205.3253 Y63.6370 
G01 X205.4817 Y63.5573 
G01 X205.6486 Y63.5031 
G01 X205.8220 Y63.4756 
G01 X205.9975 Y63.4756 
G01 X206.1709 Y63.5031 
G01 X206.3379 Y63.5573 
G01 X206.4943 Y63.6370 
G01 X206.6363 Y63.7402 
G01 X206.7604 Y63.8643 
G01 X206.8636 Y64.0063 
G01 X206.9433 Y64.1627 
G01 X206.9975 Y64.3297 
G01 X207.0250 Y64.5030 
G00 Z2.4000 
G00 X207.0250 Y61.9630 
G01 Z-0.1000 F50.00 
G01 X207.0250 Y62.1386 F100.00 
G01 X206.9975 Y62.3120 
G01 X206.9433 Y62.4789 
G01 X206.8636 Y62.6353 
G01 X206.7604 Y62.7773 
G01 X206.6363 Y62.9014 
G01 X206.4943 Y63.0046 
G01 X206.3379 Y63.0843 
G01 X206.1709 Y63.1386 
G01 X205.9975 Y63.1660 
G01 X205.8220 Y63.1660 
G01 X205.6486 Y63.1386 
G01 X205.4817 Y63.0843 
G01 X205.3253 Y63.0046 
G01 X205.1833 Y62.9014 
G01 X205.0592 Y62.7773 
G01 X204.9560 Y62.6353 
G01 X204.8763 Y62.4789 
G01 X204.8220 Y62.3120 
G01 X204.7946 Y62.1386 
G01 X204.7946 Y61.9630 
G01 X204.8220 Y61.7897 
G01 X204.8763 Y61.6227 
G01 X204.9560 Y61.4663 
G01 X205.0592 Y61.3243 
G01 X205.1833 Y61.2002 
G01 X205.3253 Y61.0970 
G01 X205.4817 Y61.0173 
G01 X205.6486 Y60.9631 
G01 X205.8220 Y60.9356 
G01 X205.9975 Y60.9356 
G01 X206.1709 Y60.9631 
G01 X206.3379 Y61.0173 
G01 X206.4943 Y61.0970 
G01 X206.6363 Y61.2002 
G01 X206.7604 Y61.3243 
G01 X206.8636 Y61.4663 
G01 X206.9433 Y61.6227 
G01 X206.9975 Y61.7897 
G01 X207.0250 Y61.9630 
G00 Z2.4000 
G00 X207.0250 Y59.4230 
G01 Z-0.1000 F50.00 
G01 X207.0250 Y59.5986 F100.00 
G01 X206.9975 Y59.7720 
G01 X206.9433 Y59.9389 
G01 X206.8636 Y60.0953 
G01 X206.7604 Y60.2373 
G01 X206.6363 Y60.3614 
G01 X206.4943 Y60.4646 
G01 X206.3379 Y60.5443 
G01 X206.1709 Y60.5986 
G01 X205.9975 Y60.6260 
G01 X205.8220 Y60.6260 
G01 X205.6486 Y60.5986 
G01 X205.4817 Y60.5443 
G01 X205.3253 Y60.4646 
G01 X205.1833 Y60.3614 
G01 X205.0592 Y60.2373 
G01 X204.9560 Y60.0953 
G01 X204.8763 Y59.9389 
G01 X204.8220 Y59.7720 
G01 X204.7946 Y59.5986 
G01 X204.7946 Y59.4230 
G01 X204.8220 Y59.2497 
G01 X204.8763 Y59.0827 
G01 X204.9560 Y58.9263 
G01 X205.0592 Y58.7843 
G01 X205.1833 Y58.6602 
G01 X205.3253 Y58.5570 
G01 X205.4817 Y58.4773 
G01 X205.6486 Y58.4231 
G01 X205.8220 Y58.3956 
G01 X205.9975 Y58.3956 
G01 X206.1709 Y58.4231 
G01 X206.3379 Y58.4773 
G01 X206.4943 Y58.5570 
G01 X206.6363 Y58.6602 
G01 X206.7604 Y58.7843 
G01 X206.8636 Y58.9263 
G01 X206.9433 Y59.0827 
G01 X206.9975 Y59.2497 
G01 X207.0250 Y59.4230 
G00 Z2.4000 
G00 X207.0250 Y56.8830 
G01 Z-0.1000 F50.00 
G01 X207.0250 Y57.0586 F100.00 
G01 X206.9975 Y57.2320 
G01 X206.9433 Y57.3989 
G01 X206.8636 Y57.5553 
G01 X206.7604 Y57.6973 
G01 X206.6363 Y57.8214 
G01 X206.4943 Y57.9246 
G01 X206.3379 Y58.0043 
G01 X206.1709 Y58.0586 
G01 X205.9975 Y58.0860 
G01 X205.8220 Y58.0860 
G01 X205.6486 Y58.0586 
G01 X205.4817 Y58.0043 
G01 X205.3253 Y57.9246 
G01 X205.1833 Y57.8214 
G01 X205.0592 Y57.6973 
G01 X204.9560 Y57.5553 
G01 X204.8763 Y57.3989 
G01 X204.8220 Y57.2320 
G01 X204.7946 Y57.0586 
G01 X204.7946 Y56.8830 
G01 X204.8220 Y56.7097 
G01 X204.8763 Y56.5427 
G01 X204.9560 Y56.3863 
G01 X205.0592 Y56.2443 
G01 X205.1833 Y56.1202 
G01 X205.3253 Y56.0170 
G01 X205.4817 Y55.9373 
G01 X205.6486 Y55.8831 
G01 X205.8220 Y55.8556 
G01 X205.9975 Y55.8556 
G01 X206.1709 Y55.8831 
G01 X206.3379 Y55.9373 
G01 X206.4943 Y56.0170 
G01 X206.6363 Y56.1202 
G01 X206.7604 Y56.2443 
G01 X206.8636 Y56.3863 
G01 X206.9433 Y56.5427 
G01 X206.9975 Y56.7097 
G01 X207.0250 Y56.8830 
G00 Z2.4000 
G00 X207.0250 Y54.3430 
G01 Z-0.1000 F50.00 
G01 X207.0250 Y54.5186 F100.00 
G01 X206.9975 Y54.6920 
G01 X206.9433 Y54.8589 
G01 X206.8636 Y55.0153 
G01 X206.7604 Y55.1573 
G01 X206.6363 Y55.2814 
G01 X206.4943 Y55.3846 
G01 X206.3379 Y55.4643 
G01 X206.1709 Y55.5186 
G01 X205.9975 Y55.5460 
G01 X205.8220 Y55.5460 
G01 X205.6486 Y55.5186 
G01 X205.4817 Y55.4643 
G01 X205.3253 Y55.3846 
G01 X205.1833 Y55.2814 
G01 X205.0592 Y55.1573 
G01 X204.9560 Y55.0153 
G01 X204.8763 Y54.8589 
G01 X204.8220 Y54.6920 
G01 X204.7946 Y54.5186 
G01 X204.7946 Y54.3430 
G01 X204.8220 Y54.1697 
G01 X204.8763 Y54.0027 
G01 X204.9560 Y53.8463 
G01 X205.0592 Y53.7043 
G01 X205.1833 Y53.5802 
G01 X205.3253 Y53.4770 
G01 X205.4817 Y53.3973 
G01 X205.6486 Y53.3431 
G01 X205.8220 Y53.3156 
G01 X205.9975 Y53.3156 
G01 X206.1709 Y53.3431 
G01 X206.3379 Y53.3973 
G01 X206.4943 Y53.4770 
G01 X206.6363 Y53.5802 
G01 X206.7604 Y53.7043 
G01 X206.8636 Y53.8463 
G01 X206.9433 Y54.0027 
G01 X206.9975 Y54.1697 
G01 X207.0250 Y54.3430 
G00 Z2.4000 
G00 X207.0250 Y51.8030 
G01 Z-0.1000 F50.00 
G01 X207.0250 Y51.9786 F100.00 
G01 X206.9975 Y52.1520 
G01 X206.9433 Y52.3189 
G01 X206.8636 Y52.4753 
G01 X206.7604 Y52.6173 
G01 X206.6363 Y52.7414 
G01 X206.4943 Y52.8446 
G01 X206.3379 Y52.9243 
G01 X206.1709 Y52.9786 
G01 X205.9975 Y53.0060 
G01 X205.8220 Y53.0060 
G01 X205.6486 Y52.9786 
G01 X205.4817 Y52.9243 
G01 X205.3253 Y52.8446 
G01 X205.1833 Y52.7414 
G01 X205.0592 Y52.6173 
G01 X204.9560 Y52.4753 
G01 X204.8763 Y52.3189 
G01 X204.8220 Y52.1520 
G01 X204.7946 Y51.9786 
G01 X204.7946 Y51.8030 
G01 X204.8220 Y51.6297 
G01 X204.8763 Y51.4627 
G01 X204.9560 Y51.3063 
G01 X205.0592 Y51.1643 
G01 X205.1833 Y51.0402 
G01 X205.3253 Y50.9370 
G01 X205.4817 Y50.8573 
G01 X205.6486 Y50.8031 
G01 X205.8220 Y50.7756 
G01 X205.9975 Y50.7756 
G01 X206.1709 Y50.8031 
G01 X206.3379 Y50.8573 
G01 X206.4943 Y50.9370 
G01 X206.6363 Y51.0402 
G01 X206.7604 Y51.1643 
G01 X206.8636 Y51.3063 
G01 X206.9433 Y51.4627 
G01 X206.9975 Y51.6297 
G01 X207.0250 Y51.8030 
G00 Z2.4000 
G00 X207.0250 Y49.2630 
G01 Z-0.1000 F50.00 
G01 X207.0250 Y49.4386 F100.00 
G01 X206.9975 Y49.6120 
G01 X206.9433 Y49.7789 
G01 X206.8636 Y49.9353 
G01 X206.7604 Y50.0773 
G01 X206.6363 Y50.2014 
G01 X206.4943 Y50.3046 
G01 X206.3379 Y50.3843 
G01 X206.1709 Y50.4385 
G01 X205.9975 Y50.4660 
G01 X205.8220 Y50.4660 
G01 X205.6486 Y50.4385 
G01 X205.4817 Y50.3843 
G01 X205.3253 Y50.3046 
G01 X205.1833 Y50.2014 
G01 X205.0592 Y50.0773 
G01 X204.9560 Y49.9353 
G01 X204.8763 Y49.7789 
G01 X204.8220 Y49.6120 
G01 X204.7946 Y49.4386 
G01 X204.7946 Y49.2630 
G01 X204.8220 Y49.0897 
G01 X204.8763 Y48.9227 
G01 X204.9560 Y48.7663 
G01 X205.0592 Y48.6243 
G01 X205.1833 Y48.5002 
G01 X205.3253 Y48.3970 
G01 X205.4817 Y48.3173 
G01 X205.6486 Y48.2631 
G01 X205.8220 Y48.2356 
G01 X205.9975 Y48.2356 
G01 X206.1709 Y48.2631 
G01 X206.3379 Y48.3173 
G01 X206.4943 Y48.3970 
G01 X206.6363 Y48.5002 
G01 X206.7604 Y48.6243 
G01 X206.8636 Y48.7663 
G01 X206.9433 Y48.9227 
G01 X206.9975 Y49.0897 
G01 X207.0250 Y49.2630 
G00 Z2.4000 
G00 X207.0250 Y46.7230 
G01 Z-0.1000 F50.00 
G01 X207.0250 Y46.8986 F100.00 
G01 X206.9975 Y47.0720 
G01 X206.9433 Y47.2389 
G01 X206.8636 Y47.3953 
G01 X206.7604 Y47.5373 
G01 X206.6363 Y47.6614 
G01 X206.4943 Y47.7646 
G01 X206.3379 Y47.8443 
G01 X206.1709 Y47.8986 
G01 X205.9975 Y47.9260 
G01 X205.8220 Y47.9260 
G01 X205.6486 Y47.8986 
G01 X205.4817 Y47.8443 
G01 X205.3253 Y47.7646 
G01 X205.1833 Y47.6614 
G01 X205.0592 Y47.5373 
G01 X204.9560 Y47.3953 
G01 X204.8763 Y47.2389 
G01 X204.8220 Y47.0720 
G01 X204.7946 Y46.8986 
G01 X204.7946 Y46.7230 
G01 X204.8220 Y46.5497 
G01 X204.8763 Y46.3827 
G01 X204.9560 Y46.2263 
G01 X205.0592 Y46.0843 
G01 X205.1833 Y45.9602 
G01 X205.3253 Y45.8570 
G01 X205.4817 Y45.7773 
G01 X205.6486 Y45.7231 
G01 X205.8220 Y45.6956 
G01 X205.9975 Y45.6956 
G01 X206.1709 Y45.7231 
G01 X206.3379 Y45.7773 
G01 X206.4943 Y45.8570 
G01 X206.6363 Y45.9602 
G01 X206.7604 Y46.0843 
G01 X206.8636 Y46.2263 
G01 X206.9433 Y46.3827 
G01 X206.9975 Y46.5497 
G01 X207.0250 Y46.7230 
G00 Z2.4000 
G00 X204.4850 Y46.7230 
G01 Z-0.1000 F50.00 
G01 X204.4850 Y46.8986 F100.00 
G01 X204.4575 Y47.0720 
G01 X204.4033 Y47.2389 
G01 X204.3236 Y47.3953 
G01 X204.2204 Y47.5373 
G01 X204.0963 Y47.6614 
G01 X203.9543 Y47.7646 
G01 X203.7979 Y47.8443 
G01 X203.6309 Y47.8986 
G01 X203.4575 Y47.9260 
G01 X203.2820 Y47.9260 
G01 X203.1086 Y47.8986 
G01 X202.9417 Y47.8443 
G01 X202.7853 Y47.7646 
G01 X202.6433 Y47.6614 
G01 X202.5191 Y47.5373 
G01 X202.4160 Y47.3953 
G01 X202.3363 Y47.2389 
G01 X202.2820 Y47.0720 
G01 X202.2546 Y46.8986 
G01 X202.2546 Y46.7230 
G01 X202.2820 Y46.5497 
G01 X202.3363 Y46.3827 
G01 X202.4160 Y46.2263 
G01 X202.5191 Y46.0843 
G01 X202.6433 Y45.9602 
G01 X202.7853 Y45.8570 
G01 X202.9417 Y45.7773 
G01 X203.1086 Y45.7231 
G01 X203.2820 Y45.6956 
G01 X203.4575 Y45.6956 
G01 X203.6309 Y45.7231 
G01 X203.7979 Y45.7773 
G01 X203.9543 Y45.8570 
G01 X204.0963 Y45.9602 
G01 X204.2204 Y46.0843 
G01 X204.3236 Y46.2263 
G01 X204.4033 Y46.3827 
G01 X204.4575 Y46.5497 
G01 X204.4850 Y46.7230 
G00 Z2.4000 
G00 X204.4850 Y49.2630 
G01 Z-0.1000 F50.00 
G01 X204.4850 Y49.4386 F100.00 
G01 X204.4575 Y49.6120 
G01 X204.4033 Y49.7789 
G01 X204.3236 Y49.9353 
G01 X204.2204 Y50.0773 
G01 X204.0963 Y50.2014 
G01 X203.9543 Y50.3046 
G01 X203.7979 Y50.3843 
G01 X203.6309 Y50.4385 
G01 X203.4575 Y50.4660 
G01 X203.2820 Y50.4660 
G01 X203.1086 Y50.4385 
G01 X202.9417 Y50.3843 
G01 X202.7853 Y50.3046 
G01 X202.6433 Y50.2014 
G01 X202.5191 Y50.0773 
G01 X202.4160 Y49.9353 
G01 X202.3363 Y49.7789 
G01 X202.2820 Y49.6120 
G01 X202.2546 Y49.4386 
G01 X202.2546 Y49.2630 
G01 X202.2820 Y49.0897 
G01 X202.3363 Y48.9227 
G01 X202.4160 Y48.7663 
G01 X202.5191 Y48.6243 
G01 X202.6433 Y48.5002 
G01 X202.7853 Y48.3970 
G01 X202.9417 Y48.3173 
G01 X203.1086 Y48.2631 
G01 X203.2820 Y48.2356 
G01 X203.4575 Y48.2356 
G01 X203.6309 Y48.2631 
G01 X203.7979 Y48.3173 
G01 X203.9543 Y48.3970 
G01 X204.0963 Y48.5002 
G01 X204.2204 Y48.6243 
G01 X204.3236 Y48.7663 
G01 X204.4033 Y48.9227 
G01 X204.4575 Y49.0897 
G01 X204.4850 Y49.2630 
G00 Z2.4000 
G00 X204.4850 Y51.8030 
G01 Z-0.1000 F50.00 
G01 X204.4850 Y51.9786 F100.00 
G01 X204.4575 Y52.1520 
G01 X204.4033 Y52.3189 
G01 X204.3236 Y52.4753 
G01 X204.2204 Y52.6173 
G01 X204.0963 Y52.7414 
G01 X203.9543 Y52.8446 
G01 X203.7979 Y52.9243 
G01 X203.6309 Y52.9786 
G01 X203.4575 Y53.0060 
G01 X203.2820 Y53.0060 
G01 X203.1086 Y52.9786 
G01 X202.9417 Y52.9243 
G01 X202.7853 Y52.8446 
G01 X202.6433 Y52.7414 
G01 X202.5191 Y52.6173 
G01 X202.4160 Y52.4753 
G01 X202.3363 Y52.3189 
G01 X202.2820 Y52.1520 
G01 X202.2546 Y51.9786 
G01 X202.2546 Y51.8030 
G01 X202.2820 Y51.6297 
G01 X202.3363 Y51.4627 
G01 X202.4160 Y51.3063 
G01 X202.5191 Y51.1643 
G01 X202.6433 Y51.0402 
G01 X202.7853 Y50.9370 
G01 X202.9417 Y50.8573 
G01 X203.1086 Y50.8031 
G01 X203.2820 Y50.7756 
G01 X203.4575 Y50.7756 
G01 X203.6309 Y50.8031 
G01 X203.7979 Y50.8573 
G01 X203.9543 Y50.9370 
G01 X204.0963 Y51.0402 
G01 X204.2204 Y51.1643 
G01 X204.3236 Y51.3063 
G01 X204.4033 Y51.4627 
G01 X204.4575 Y51.6297 
G01 X204.4850 Y51.8030 
G00 Z2.4000 
G00 X204.4850 Y54.3430 
G01 Z-0.1000 F50.00 
G01 X204.4850 Y54.5186 F100.00 
G01 X204.4575 Y54.6920 
G01 X204.4033 Y54.8589 
G01 X204.3236 Y55.0153 
G01 X204.2204 Y55.1573 
G01 X204.0963 Y55.2814 
G01 X203.9543 Y55.3846 
G01 X203.7979 Y55.4643 
G01 X203.6309 Y55.5186 
G01 X203.4575 Y55.5460 
G01 X203.2820 Y55.5460 
G01 X203.1086 Y55.5186 
G01 X202.9417 Y55.4643 
G01 X202.7853 Y55.3846 
G01 X202.6433 Y55.2814 
G01 X202.5191 Y55.1573 
G01 X202.4160 Y55.0153 
G01 X202.3363 Y54.8589 
G01 X202.2820 Y54.6920 
G01 X202.2546 Y54.5186 
G01 X202.2546 Y54.3430 
G01 X202.2820 Y54.1697 
G01 X202.3363 Y54.0027 
G01 X202.4160 Y53.8463 
G01 X202.5191 Y53.7043 
G01 X202.6433 Y53.5802 
G01 X202.7853 Y53.4770 
G01 X202.9417 Y53.3973 
G01 X203.1086 Y53.3431 
G01 X203.2820 Y53.3156 
G01 X203.4575 Y53.3156 
G01 X203.6309 Y53.3431 
G01 X203.7979 Y53.3973 
G01 X203.9543 Y53.4770 
G01 X204.0963 Y53.5802 
G01 X204.2204 Y53.7043 
G01 X204.3236 Y53.8463 
G01 X204.4033 Y54.0027 
G01 X204.4575 Y54.1697 
G01 X204.4850 Y54.3430 
G00 Z2.4000 
G00 X204.4850 Y56.8830 
G01 Z-0.1000 F50.00 
G01 X204.4850 Y57.0586 F100.00 
G01 X204.4575 Y57.2320 
G01 X204.4033 Y57.3989 
G01 X204.3236 Y57.5553 
G01 X204.2204 Y57.6973 
G01 X204.0963 Y57.8214 
G01 X203.9543 Y57.9246 
G01 X203.7979 Y58.0043 
G01 X203.6309 Y58.0586 
G01 X203.4575 Y58.0860 
G01 X203.2820 Y58.0860 
G01 X203.1086 Y58.0586 
G01 X202.9417 Y58.0043 
G01 X202.7853 Y57.9246 
G01 X202.6433 Y57.8214 
G01 X202.5191 Y57.6973 
G01 X202.4160 Y57.5553 
G01 X202.3363 Y57.3989 
G01 X202.2820 Y57.2320 
G01 X202.2546 Y57.0586 
G01 X202.2546 Y56.8830 
G01 X202.2820 Y56.7097 
G01 X202.3363 Y56.5427 
G01 X202.4160 Y56.3863 
G01 X202.5191 Y56.2443 
G01 X202.6433 Y56.1202 
G01 X202.7853 Y56.0170 
G01 X202.9417 Y55.9373 
G01 X203.1086 Y55.8831 
G01 X203.2820 Y55.8556 
G01 X203.4575 Y55.8556 
G01 X203.6309 Y55.8831 
G01 X203.7979 Y55.9373 
G01 X203.9543 Y56.0170 
G01 X204.0963 Y56.1202 
G01 X204.2204 Y56.2443 
G01 X204.3236 Y56.3863 
G01 X204.4033 Y56.5427 
G01 X204.4575 Y56.7097 
G01 X204.4850 Y56.8830 
G00 Z2.4000 
G00 X204.4850 Y59.4230 
G01 Z-0.1000 F50.00 
G01 X204.4850 Y59.5986 F100.00 
G01 X204.4575 Y59.7720 
G01 X204.4033 Y59.9389 
G01 X204.3236 Y60.0953 
G01 X204.2204 Y60.2373 
G01 X204.0963 Y60.3614 
G01 X203.9543 Y60.4646 
G01 X203.7979 Y60.5443 
G01 X203.6309 Y60.5986 
G01 X203.4575 Y60.6260 
G01 X203.2820 Y60.6260 
G01 X203.1086 Y60.5986 
G01 X202.9417 Y60.5443 
G01 X202.7853 Y60.4646 
G01 X202.6433 Y60.3614 
G01 X202.5191 Y60.2373 
G01 X202.4160 Y60.0953 
G01 X202.3363 Y59.9389 
G01 X202.2820 Y59.7720 
G01 X202.2546 Y59.5986 
G01 X202.2546 Y59.4230 
G01 X202.2820 Y59.2497 
G01 X202.3363 Y59.0827 
G01 X202.4160 Y58.9263 
G01 X202.5191 Y58.7843 
G01 X202.6433 Y58.6602 
G01 X202.7853 Y58.5570 
G01 X202.9417 Y58.4773 
G01 X203.1086 Y58.4231 
G01 X203.2820 Y58.3956 
G01 X203.4575 Y58.3956 
G01 X203.6309 Y58.4231 
G01 X203.7979 Y58.4773 
G01 X203.9543 Y58.5570 
G01 X204.0963 Y58.6602 
G01 X204.2204 Y58.7843 
G01 X204.3236 Y58.9263 
G01 X204.4033 Y59.0827 
G01 X204.4575 Y59.2497 
G01 X204.4850 Y59.4230 
G00 Z2.4000 
G00 X204.4850 Y61.9630 
G01 Z-0.1000 F50.00 
G01 X204.4850 Y62.1386 F100.00 
G01 X204.4575 Y62.3120 
G01 X204.4033 Y62.4789 
G01 X204.3236 Y62.6353 
G01 X204.2204 Y62.7773 
G01 X204.0963 Y62.9014 
G01 X203.9543 Y63.0046 
G01 X203.7979 Y63.0843 
G01 X203.6309 Y63.1386 
G01 X203.4575 Y63.1660 
G01 X203.2820 Y63.1660 
G01 X203.1086 Y63.1386 
G01 X202.9417 Y63.0843 
G01 X202.7853 Y63.0046 
G01 X202.6433 Y62.9014 
G01 X202.5191 Y62.7773 
G01 X202.4160 Y62.6353 
G01 X202.3363 Y62.4789 
G01 X202.2820 Y62.3120 
G01 X202.2546 Y62.1386 
G01 X202.2546 Y61.9630 
G01 X202.2820 Y61.7897 
G01 X202.3363 Y61.6227 
G01 X202.4160 Y61.4663 
G01 X202.5191 Y61.3243 
G01 X202.6433 Y61.2002 
G01 X202.7853 Y61.0970 
G01 X202.9417 Y61.0173 
G01 X203.1086 Y60.9631 
G01 X203.2820 Y60.9356 
G01 X203.4575 Y60.9356 
G01 X203.6309 Y60.9631 
G01 X203.7979 Y61.0173 
G01 X203.9543 Y61.0970 
G01 X204.0963 Y61.2002 
G01 X204.2204 Y61.3243 
G01 X204.3236 Y61.4663 
G01 X204.4033 Y61.6227 
G01 X204.4575 Y61.7897 
G01 X204.4850 Y61.9630 
G00 Z2.4000 
G00 X204.4850 Y67.0430 
G01 Z-0.1000 F50.00 
G01 X204.4850 Y67.2186 F100.00 
G01 X204.4575 Y67.3920 
G01 X204.4033 Y67.5589 
G01 X204.3236 Y67.7153 
G01 X204.2204 Y67.8573 
G01 X204.0963 Y67.9814 
G01 X203.9543 Y68.0846 
G01 X203.7979 Y68.1643 
G01 X203.6309 Y68.2186 
G01 X203.4575 Y68.2460 
G01 X203.2820 Y68.2460 
G01 X203.1086 Y68.2186 
G01 X202.9417 Y68.1643 
G01 X202.7853 Y68.0846 
G01 X202.6433 Y67.9814 
G01 X202.5191 Y67.8573 
G01 X202.4160 Y67.7153 
G01 X202.4017 Y67.6872 
G01 X200.0997 Y67.6872 
G01 X199.0296 Y68.7573 
G01 X199.0296 Y74.6835 
G01 X198.9917 Y74.8250 
G01 X198.9184 Y74.9519 
G01 X198.8148 Y75.0555 
G01 X198.0555 Y75.8148 
G01 X197.9519 Y75.9184 
G01 X197.8250 Y75.9917 
G01 X197.6835 Y76.0296 
G01 X170.5712 Y76.0296 
G01 X168.4764 Y78.1244 
G01 X168.4764 Y78.2604 
G01 X168.4853 Y78.2778 
G01 X168.5425 Y78.4538 
G01 X168.5714 Y78.6365 
G01 X168.5714 Y78.8215 
G01 X168.5425 Y79.0042 
G01 X168.4853 Y79.1802 
G01 X168.4013 Y79.3450 
G01 X168.2925 Y79.4947 
G01 X168.1617 Y79.6255 
G01 X168.0120 Y79.7343 
G01 X167.8472 Y79.8183 
G01 X167.6712 Y79.8755 
G01 X167.4885 Y79.9044 
G01 X167.3035 Y79.9044 
G01 X167.1208 Y79.8755 
G01 X166.9448 Y79.8183 
G01 X166.7800 Y79.7343 
G01 X166.6303 Y79.6255 
G01 X166.4995 Y79.4947 
G01 X166.3907 Y79.3450 
G01 X166.3067 Y79.1802 
G01 X166.2495 Y79.0042 
G01 X166.2206 Y78.8215 
G01 X166.2206 Y78.6365 
G01 X166.2495 Y78.4538 
G01 X166.3067 Y78.2778 
G01 X166.3907 Y78.1130 
G01 X166.4995 Y77.9633 
G01 X166.6303 Y77.8325 
G01 X166.7800 Y77.7237 
G01 X166.9448 Y77.6397 
G01 X167.1208 Y77.5825 
G01 X167.3035 Y77.5536 
G01 X167.4740 Y77.5536 
G01 X169.8955 Y75.1316 
G01 X169.9991 Y75.0280 
G01 X170.1260 Y74.9547 
G01 X170.2675 Y74.9168 
G01 X197.3798 Y74.9168 
G01 X197.9168 Y74.3798 
G01 X197.9168 Y68.4535 
G01 X197.9547 Y68.3120 
G01 X198.0280 Y68.1852 
G01 X199.5276 Y66.6856 
G01 X199.6544 Y66.6123 
G01 X199.7959 Y66.5744 
G01 X202.4017 Y66.5744 
G01 X202.4160 Y66.5463 
G01 X202.5191 Y66.4043 
G01 X202.6433 Y66.2802 
G01 X202.7853 Y66.1770 
G01 X202.9417 Y66.0973 
G01 X203.1086 Y66.0431 
G01 X203.2820 Y66.0156 
G01 X203.4575 Y66.0156 
G01 X203.6309 Y66.0431 
G01 X203.7979 Y66.0973 
G01 X203.9543 Y66.1770 
G01 X204.0963 Y66.2802 
G01 X204.2204 Y66.4043 
G01 X204.3236 Y66.5463 
G01 X204.4033 Y66.7027 
G01 X204.4575 Y66.8697 
G01 X204.4850 Y67.0430 
G00 Z2.4000 
G00 X204.4850 Y69.5830 
G01 Z-0.1000 F50.00 
G01 X204.4850 Y69.7586 F100.00 
G01 X204.4575 Y69.9320 
G01 X204.4033 Y70.0989 
G01 X204.3236 Y70.2553 
G01 X204.2204 Y70.3973 
G01 X204.0963 Y70.5214 
G01 X203.9543 Y70.6246 
G01 X203.7979 Y70.7043 
G01 X203.6309 Y70.7585 
G01 X203.4575 Y70.7860 
G01 X203.2820 Y70.7860 
G01 X203.1086 Y70.7585 
G01 X202.9417 Y70.7043 
G01 X202.7853 Y70.6246 
G01 X202.6433 Y70.5214 
G01 X202.5191 Y70.3973 
G01 X202.4160 Y70.2553 
G01 X202.3363 Y70.0989 
G01 X202.2820 Y69.9320 
G01 X202.2546 Y69.7586 
G01 X202.2546 Y69.5830 
G01 X202.2820 Y69.4097 
G01 X202.3363 Y69.2427 
G01 X202.4160 Y69.0863 
G01 X202.5191 Y68.9443 
G01 X202.6433 Y68.8202 
G01 X202.7853 Y68.7170 
G01 X202.9417 Y68.6373 
G01 X203.1086 Y68.5831 
G01 X203.2820 Y68.5556 
G01 X203.4575 Y68.5556 
G01 X203.6309 Y68.5831 
G01 X203.7979 Y68.6373 
G01 X203.9543 Y68.7170 
G01 X204.0963 Y68.8202 
G01 X204.2204 Y68.9443 
G01 X204.3236 Y69.0863 
G01 X204.4033 Y69.2427 
G01 X204.4575 Y69.4097 
G01 X204.4850 Y69.5830 
G00 Z2.4000 
G00 X204.4850 Y72.1230 
G01 Z-0.1000 F50.00 
G01 X204.4850 Y72.2986 F100.00 
G01 X204.4575 Y72.4720 
G01 X204.4033 Y72.6389 
G01 X204.3236 Y72.7953 
G01 X204.2204 Y72.9373 
G01 X204.0963 Y73.0614 
G01 X203.9543 Y73.1646 
G01 X203.7979 Y73.2443 
G01 X203.6309 Y73.2986 
G01 X203.4575 Y73.3260 
G01 X203.2820 Y73.3260 
G01 X203.1086 Y73.2986 
G01 X202.9417 Y73.2443 
G01 X202.7853 Y73.1646 
G01 X202.6433 Y73.0614 
G01 X202.5191 Y72.9373 
G01 X202.4160 Y72.7953 
G01 X202.3363 Y72.6389 
G01 X202.2820 Y72.4720 
G01 X202.2546 Y72.2986 
G01 X202.2546 Y72.1230 
G01 X202.2820 Y71.9497 
G01 X202.3363 Y71.7827 
G01 X202.4160 Y71.6263 
G01 X202.5191 Y71.4843 
G01 X202.6433 Y71.3602 
G01 X202.7853 Y71.2570 
G01 X202.9417 Y71.1773 
G01 X203.1086 Y71.1231 
G01 X203.2820 Y71.0956 
G01 X203.4575 Y71.0956 
G01 X203.6309 Y71.1231 
G01 X203.7979 Y71.1773 
G01 X203.9543 Y71.2570 
G01 X204.0963 Y71.3602 
G01 X204.2204 Y71.4843 
G01 X204.3236 Y71.6263 
G01 X204.4033 Y71.7827 
G01 X204.4575 Y71.9497 
G01 X204.4850 Y72.1230 
G00 Z2.4000 
G00 X204.4850 Y74.6630 
G01 Z-0.1000 F50.00 
G01 X204.4850 Y74.8386 F100.00 
G01 X204.4575 Y75.0120 
G01 X204.4033 Y75.1789 
G01 X204.3236 Y75.3353 
G01 X204.2204 Y75.4773 
G01 X204.0963 Y75.6014 
G01 X203.9543 Y75.7046 
G01 X203.7979 Y75.7843 
G01 X203.6309 Y75.8385 
G01 X203.4575 Y75.8660 
G01 X203.2820 Y75.8660 
G01 X203.1086 Y75.8385 
G01 X202.9417 Y75.7843 
G01 X202.7853 Y75.7046 
G01 X202.6433 Y75.6014 
G01 X202.5191 Y75.4773 
G01 X202.4160 Y75.3353 
G01 X202.3363 Y75.1789 
G01 X202.2820 Y75.0120 
G01 X202.2546 Y74.8386 
G01 X202.2546 Y74.6630 
G01 X202.2820 Y74.4897 
G01 X202.3363 Y74.3227 
G01 X202.4160 Y74.1663 
G01 X202.5191 Y74.0243 
G01 X202.6433 Y73.9002 
G01 X202.7853 Y73.7970 
G01 X202.9417 Y73.7173 
G01 X203.1086 Y73.6631 
G01 X203.2820 Y73.6356 
G01 X203.4575 Y73.6356 
G01 X203.6309 Y73.6631 
G01 X203.7979 Y73.7173 
G01 X203.9543 Y73.7970 
G01 X204.0963 Y73.9002 
G01 X204.2204 Y74.0243 
G01 X204.3236 Y74.1663 
G01 X204.4033 Y74.3227 
G01 X204.4575 Y74.4897 
G01 X204.4850 Y74.6630 
G00 Z2.4000 
G00 X204.4850 Y77.2030 
G01 Z-0.1000 F50.00 
G01 X204.4850 Y77.3786 F100.00 
G01 X204.4575 Y77.5520 
G01 X204.4033 Y77.7189 
G01 X204.3236 Y77.8753 
G01 X204.2204 Y78.0173 
G01 X204.0963 Y78.1414 
G01 X203.9543 Y78.2446 
G01 X203.7979 Y78.3243 
G01 X203.6309 Y78.3786 
G01 X203.4575 Y78.4060 
G01 X203.2820 Y78.4060 
G01 X203.1086 Y78.3786 
G01 X202.9417 Y78.3243 
G01 X202.7853 Y78.2446 
G01 X202.6433 Y78.1414 
G01 X202.5191 Y78.0173 
G01 X202.4160 Y77.8753 
G01 X202.3363 Y77.7189 
G01 X202.2820 Y77.5520 
G01 X202.2546 Y77.3786 
G01 X202.2546 Y77.2030 
G01 X202.2820 Y77.0297 
G01 X202.3363 Y76.8627 
G01 X202.4160 Y76.7063 
G01 X202.5191 Y76.5643 
G01 X202.6433 Y76.4402 
G01 X202.7853 Y76.3370 
G01 X202.9417 Y76.2573 
G01 X203.1086 Y76.2031 
G01 X203.2820 Y76.1756 
G01 X203.4575 Y76.1756 
G01 X203.6309 Y76.2031 
G01 X203.7979 Y76.2573 
G01 X203.9543 Y76.3370 
G01 X204.0963 Y76.4402 
G01 X204.2204 Y76.5643 
G01 X204.3236 Y76.7063 
G01 X204.4033 Y76.8627 
G01 X204.4575 Y77.0297 
G01 X204.4850 Y77.2030 
G00 Z2.4000 
G00 X39.9168 Y16.3798 
G01 Z-0.1000 F50.00 
G01 X39.9168 Y7.6799 F100.00 
G01 X39.9547 Y7.5384 
G01 X40.0280 Y7.4115 
G01 X40.1316 Y7.3079 
G01 X41.4851 Y5.9544 
G01 X41.6120 Y5.8811 
G01 X41.7535 Y5.8432 
G01 X43.6465 Y5.8432 
G01 X43.7880 Y5.8811 
G01 X43.9149 Y5.9544 
G01 X44.0041 Y6.0436 
G01 X45.2686 Y6.0436 
G01 X45.3237 Y5.9356 
G01 X45.4409 Y5.7742 
G01 X45.5820 Y5.6331 
G01 X45.7434 Y5.5159 
G01 X45.9212 Y5.4253 
G01 X46.1110 Y5.3636 
G01 X46.3080 Y5.3324 
G01 X48.6920 Y5.3324 
G01 X48.8890 Y5.3636 
G01 X49.0788 Y5.4253 
G01 X49.2566 Y5.5159 
G01 X49.4180 Y5.6331 
G01 X49.5591 Y5.7742 
G01 X49.6763 Y5.9356 
G01 X49.7669 Y6.1134 
G01 X49.8286 Y6.3032 
G01 X49.8598 Y6.5002 
G01 X49.8598 Y6.6998 
G01 X49.8286 Y6.8968 
G01 X49.7669 Y7.0866 
G01 X49.6763 Y7.2644 
G01 X49.5591 Y7.4258 
G01 X49.4180 Y7.5669 
G01 X49.2566 Y7.6841 
G01 X49.0788 Y7.7747 
G01 X48.8890 Y7.8364 
G01 X48.6920 Y7.8676 
G01 X46.3080 Y7.8676 
G01 X46.1110 Y7.8364 
G01 X45.9212 Y7.7747 
G01 X45.7434 Y7.6841 
G01 X45.5820 Y7.5669 
G01 X45.4409 Y7.4258 
G01 X45.3237 Y7.2644 
G01 X45.2686 Y7.1564 
G01 X43.7004 Y7.1564 
G01 X43.5589 Y7.1185 
G01 X43.4320 Y7.0452 
G01 X43.3428 Y6.9560 
G01 X42.0572 Y6.9560 
G01 X41.0296 Y7.9836 
G01 X41.0296 Y16.6835 
G01 X40.9917 Y16.8250 
G01 X40.9184 Y16.9519 
G01 X40.8148 Y17.0555 
G01 X39.5287 Y18.3416 
G01 X39.4251 Y18.4452 
G01 X39.2982 Y18.5185 
G01 X39.1567 Y18.5564 
G01 X23.2305 Y18.5564 
G01 X19.5564 Y22.2305 
G01 X19.5564 Y27.0733 
G01 X19.5185 Y27.2148 
G01 X19.4452 Y27.3416 
G01 X12.5564 Y34.2305 
G01 X12.5564 Y49.0733 
G01 X12.5185 Y49.2148 
G01 X12.4452 Y49.3416 
G01 X7.9204 Y53.8665 
G01 X7.9204 Y56.7626 
G01 X8.6489 Y56.7626 
G01 X8.7134 Y56.7893 
G01 X8.7627 Y56.8386 
G01 X8.7894 Y56.9031 
G01 X8.7894 Y59.4729 
G01 X8.7627 Y59.5374 
G01 X8.7134 Y59.5867 
G01 X8.6489 Y59.6134 
G01 X6.0791 Y59.6134 
G01 X6.0146 Y59.5867 
G01 X5.9653 Y59.5374 
G01 X5.9386 Y59.4729 
G01 X5.9386 Y56.9031 
G01 X5.9653 Y56.8386 
G01 X6.0146 Y56.7893 
G01 X6.0791 Y56.7626 
G01 X6.8076 Y56.7626 
G01 X6.8076 Y53.5627 
G01 X6.8455 Y53.4212 
G01 X6.9188 Y53.2944 
G01 X11.4436 Y48.7695 
G01 X11.4436 Y33.9267 
G01 X11.4815 Y33.7852 
G01 X11.5548 Y33.6584 
G01 X11.6584 Y33.5548 
G01 X18.4436 Y26.7695 
G01 X18.4436 Y21.9267 
G01 X18.4815 Y21.7852 
G01 X18.5548 Y21.6584 
G01 X18.6584 Y21.5548 
G01 X22.5548 Y17.6584 
G01 X22.6584 Y17.5548 
G01 X22.7852 Y17.4815 
G01 X22.9267 Y17.4436 
G01 X38.8530 Y17.4436 
G01 X39.9168 Y16.3798 
G00 Z2.4000 
G00 X116.4436 Y14.7469 
G01 Z-0.1000 F50.00 
G01 X116.4436 Y14.6004 F100.00 
G01 X116.4815 Y14.4589 
G01 X116.5548 Y14.3320 
G01 X117.2440 Y13.6428 
G01 X117.2440 Y10.2309 
G01 X115.0807 Y8.0676 
G01 X113.4080 Y8.0676 
G01 X113.2110 Y8.0364 
G01 X113.0212 Y7.9747 
G01 X112.8434 Y7.8841 
G01 X112.6820 Y7.7669 
G01 X112.5409 Y7.6258 
G01 X112.4237 Y7.4644 
G01 X112.3331 Y7.2866 
G01 X112.2714 Y7.0968 
G01 X112.2402 Y6.8998 
G01 X112.2402 Y6.7002 
G01 X112.2714 Y6.5032 
G01 X112.3331 Y6.3134 
G01 X112.4237 Y6.1356 
G01 X112.5409 Y5.9742 
G01 X112.6820 Y5.8331 
G01 X112.8434 Y5.7159 
G01 X113.0212 Y5.6253 
G01 X113.2110 Y5.5636 
G01 X113.4080 Y5.5324 
G01 X115.7920 Y5.5324 
G01 X115.9890 Y5.5636 
G01 X116.1788 Y5.6253 
G01 X116.3566 Y5.7159 
G01 X116.5180 Y5.8331 
G01 X116.6591 Y5.9742 
G01 X116.7763 Y6.1356 
G01 X116.8669 Y6.3134 
G01 X116.9286 Y6.5032 
G01 X116.9598 Y6.7002 
G01 X116.9598 Y6.8998 
G01 X116.9286 Y7.0968 
G01 X116.8669 Y7.2866 
G01 X116.7763 Y7.4644 
G01 X116.6591 Y7.6258 
G01 X116.5180 Y7.7669 
G01 X116.4229 Y7.8360 
G01 X118.2456 Y9.6588 
G01 X118.3189 Y9.7856 
G01 X118.3568 Y9.9271 
G01 X118.3568 Y13.9465 
G01 X118.3189 Y14.0880 
G01 X118.2456 Y14.2149 
G01 X118.1420 Y14.3185 
G01 X117.5564 Y14.9041 
G01 X117.5564 Y16.0733 
G01 X117.5185 Y16.2148 
G01 X117.4452 Y16.3416 
G01 X115.7452 Y18.0416 
G01 X115.6416 Y18.1452 
G01 X115.5148 Y18.2185 
G01 X115.3732 Y18.2564 
G01 X86.5061 Y18.2564 
G01 X83.5564 Y21.2061 
G01 X83.5564 Y39.0733 
G01 X83.5185 Y39.2148 
G01 X83.4452 Y39.3416 
G01 X83.3416 Y39.4452 
G01 X72.9446 Y49.8422 
G01 X72.8178 Y49.9155 
G01 X72.6763 Y49.9534 
G01 X44.8091 Y49.9534 
G01 X41.0239 Y53.7386 
G01 X40.9203 Y53.8422 
G01 X40.7934 Y53.9155 
G01 X40.6519 Y53.9534 
G01 X36.8335 Y53.9534 
G01 X33.9534 Y56.8335 
G01 X33.9534 Y60.3519 
G01 X33.9155 Y60.4934 
G01 X33.8422 Y60.6203 
G01 X28.5564 Y65.9061 
G01 X28.5564 Y90.1567 
G01 X28.5185 Y90.2982 
G01 X28.4452 Y90.4251 
G01 X27.1666 Y91.7037 
G01 X27.1666 Y95.6189 
G01 X27.2436 Y95.6959 
G01 X27.3472 Y95.7995 
G01 X27.4205 Y95.9264 
G01 X27.4584 Y96.0679 
G01 X27.4584 Y99.5561 
G01 X27.4205 Y99.6976 
G01 X27.3472 Y99.8245 
G01 X27.2436 Y99.9281 
G01 X27.1666 Y100.0051 
G01 X27.1666 Y102.3798 
G01 X30.2305 Y105.4436 
G01 X91.7939 Y105.4436 
G01 X99.0797 Y98.1578 
G01 X99.2066 Y98.0845 
G01 X99.3481 Y98.0466 
G01 X127.8335 Y98.0466 
G01 X131.2702 Y94.6099 
G01 X131.2495 Y94.5462 
G01 X131.2206 Y94.3635 
G01 X131.2206 Y94.1785 
G01 X131.2495 Y93.9958 
G01 X131.3067 Y93.8198 
G01 X131.3907 Y93.6550 
G01 X131.4995 Y93.5053 
G01 X131.6303 Y93.3745 
G01 X131.7800 Y93.2657 
G01 X131.9448 Y93.1817 
G01 X132.1208 Y93.1245 
G01 X132.3035 Y93.0956 
G01 X132.4740 Y93.0956 
G01 X133.6557 Y91.9134 
G01 X133.7593 Y91.8098 
G01 X133.8862 Y91.7365 
G01 X134.0277 Y91.6986 
G01 X147.0981 Y91.6986 
G01 X147.2396 Y91.7365 
G01 X147.3665 Y91.8098 
G01 X147.4701 Y91.9134 
G01 X148.0003 Y92.4436 
G01 X165.0733 Y92.4436 
G01 X165.2148 Y92.4815 
G01 X165.3416 Y92.5548 
G01 X167.8412 Y95.0544 
G01 X167.9145 Y95.1812 
G01 X167.9524 Y95.3227 
G01 X167.9524 Y96.2353 
G01 X168.0120 Y96.2657 
G01 X168.1617 Y96.3745 
G01 X168.2925 Y96.5053 
G01 X168.4013 Y96.6550 
G01 X168.4853 Y96.8198 
G01 X168.5425 Y96.9958 
G01 X168.5714 Y97.1785 
G01 X168.5714 Y97.3635 
G01 X168.5425 Y97.5462 
G01 X168.4853 Y97.7222 
G01 X168.4013 Y97.8870 
G01 X168.2925 Y98.0367 
G01 X168.1617 Y98.1675 
G01 X168.0120 Y98.2763 
G01 X167.8472 Y98.3603 
G01 X167.6712 Y98.4175 
G01 X167.4885 Y98.4464 
G01 X167.3035 Y98.4464 
G01 X167.1208 Y98.4175 
G01 X166.9448 Y98.3603 
G01 X166.7800 Y98.2763 
G01 X166.6303 Y98.1675 
G01 X166.4995 Y98.0367 
G01 X166.3907 Y97.8870 
G01 X166.3067 Y97.7222 
G01 X166.2495 Y97.5462 
G01 X166.2206 Y97.3635 
G01 X166.2206 Y97.1785 
G01 X166.2495 Y96.9958 
G01 X166.3067 Y96.8198 
G01 X166.3907 Y96.6550 
G01 X166.4995 Y96.5053 
G01 X166.6303 Y96.3745 
G01 X166.7800 Y96.2657 
G01 X166.8396 Y96.2353 
G01 X166.8396 Y95.6265 
G01 X164.7695 Y93.5564 
G01 X147.6966 Y93.5564 
G01 X147.5551 Y93.5185 
G01 X147.4282 Y93.4452 
G01 X147.3246 Y93.3416 
G01 X146.7944 Y92.8114 
G01 X134.3314 Y92.8114 
G01 X133.4764 Y93.6664 
G01 X133.4764 Y93.8024 
G01 X133.4853 Y93.8198 
G01 X133.5425 Y93.9958 
G01 X133.5714 Y94.1785 
G01 X133.5714 Y94.3635 
G01 X133.5425 Y94.5462 
G01 X133.4853 Y94.7222 
G01 X133.4013 Y94.8870 
G01 X133.2925 Y95.0367 
G01 X133.1617 Y95.1675 
G01 X133.0120 Y95.2763 
G01 X132.8472 Y95.3603 
G01 X132.6712 Y95.4175 
G01 X132.4885 Y95.4464 
G01 X132.3035 Y95.4464 
G01 X132.1208 Y95.4175 
G01 X132.0571 Y95.3968 
G01 X128.5092 Y98.9446 
G01 X128.4056 Y99.0482 
G01 X128.2788 Y99.1215 
G01 X128.1372 Y99.1594 
G01 X99.6518 Y99.1594 
G01 X92.3660 Y106.4452 
G01 X92.2391 Y106.5185 
G01 X92.0976 Y106.5564 
G01 X29.9267 Y106.5564 
G01 X29.7852 Y106.5185 
G01 X29.6584 Y106.4452 
G01 X26.1650 Y102.9519 
G01 X26.0917 Y102.8250 
G01 X26.0538 Y102.6835 
G01 X26.0538 Y99.7014 
G01 X26.0917 Y99.5599 
G01 X26.1650 Y99.4330 
G01 X26.2686 Y99.3294 
G01 X26.3456 Y99.2524 
G01 X26.3456 Y96.3716 
G01 X26.1650 Y96.1910 
G01 X26.0917 Y96.0641 
G01 X26.0538 Y95.9226 
G01 X26.0538 Y92.0296 
G01 X15.7573 Y92.0296 
G01 X13.3416 Y94.4452 
G01 X13.2148 Y94.5185 
G01 X13.0732 Y94.5564 
G01 X11.9474 Y94.5564 
G01 X9.9216 Y96.5822 
G01 X9.7947 Y96.6555 
G01 X9.6532 Y96.6934 
G01 X9.2695 Y96.6934 
G01 X8.7894 Y97.1735 
G01 X8.7894 Y99.0969 
G01 X8.7627 Y99.1614 
G01 X8.7134 Y99.2107 
G01 X8.6489 Y99.2374 
G01 X6.0791 Y99.2374 
G01 X6.0146 Y99.2107 
G01 X5.9653 Y99.1614 
G01 X5.9386 Y99.0969 
G01 X5.9386 Y96.5271 
G01 X5.9653 Y96.4626 
G01 X6.0146 Y96.4133 
G01 X6.0791 Y96.3866 
G01 X8.0025 Y96.3866 
G01 X8.6974 Y95.6918 
G01 X8.8242 Y95.6185 
G01 X8.9657 Y95.5806 
G01 X9.3495 Y95.5806 
G01 X11.3753 Y93.5548 
G01 X11.5022 Y93.4815 
G01 X11.6437 Y93.4436 
G01 X12.7695 Y93.4436 
G01 X15.0816 Y91.1316 
G01 X15.1852 Y91.0280 
G01 X15.3120 Y90.9547 
G01 X15.4535 Y90.9168 
G01 X26.3798 Y90.9168 
G01 X27.4436 Y89.8530 
G01 X27.4436 Y65.6024 
G01 X27.4815 Y65.4609 
G01 X27.5548 Y65.3340 
G01 X27.6584 Y65.2304 
G01 X32.8406 Y60.0482 
G01 X32.8406 Y56.5297 
G01 X32.8785 Y56.3882 
G01 X32.9518 Y56.2614 
G01 X36.2614 Y52.9518 
G01 X36.3882 Y52.8785 
G01 X36.5297 Y52.8406 
G01 X40.3482 Y52.8406 
G01 X44.2370 Y48.9518 
G01 X44.3639 Y48.8785 
G01 X44.5054 Y48.8406 
G01 X72.3725 Y48.8406 
G01 X82.4436 Y38.7695 
G01 X82.4436 Y20.9024 
G01 X82.4815 Y20.7609 
G01 X82.5548 Y20.6340 
G01 X85.9340 Y17.2548 
G01 X86.0609 Y17.1815 
G01 X86.2024 Y17.1436 
G01 X115.0695 Y17.1436 
G01 X116.4436 Y15.7695 
G01 X116.4436 Y14.7469 
G00 Z2.4000 
G00 X34.1754 Y86.9075 
G01 Z-0.1000 F50.00 
G01 X34.1754 Y87.0925 F100.00 
G01 X34.1465 Y87.2752 
G01 X34.0893 Y87.4512 
G01 X34.0053 Y87.6160 
G01 X33.8965 Y87.7657 
G01 X33.7657 Y87.8965 
G01 X33.6160 Y88.0053 
G01 X33.4512 Y88.0893 
G01 X33.2752 Y88.1465 
G01 X33.0925 Y88.1754 
G01 X32.9075 Y88.1754 
G01 X32.7248 Y88.1465 
G01 X32.5488 Y88.0893 
G01 X32.3840 Y88.0053 
G01 X32.2343 Y87.8965 
G01 X32.1035 Y87.7657 
G01 X31.9947 Y87.6160 
G01 X31.9107 Y87.4512 
G01 X31.8535 Y87.2752 
G01 X31.8246 Y87.0925 
G01 X31.8246 Y86.9075 
G01 X31.8535 Y86.7248 
G01 X31.9107 Y86.5488 
G01 X31.9947 Y86.3840 
G01 X32.1035 Y86.2343 
G01 X32.2343 Y86.1035 
G01 X32.3840 Y85.9947 
G01 X32.5488 Y85.9107 
G01 X32.7248 Y85.8535 
G01 X32.9075 Y85.8246 
G01 X33.0925 Y85.8246 
G01 X33.2752 Y85.8535 
G01 X33.4512 Y85.9107 
G01 X33.6160 Y85.9947 
G01 X33.7657 Y86.1035 
G01 X33.8965 Y86.2343 
G01 X34.0053 Y86.3840 
G01 X34.0893 Y86.5488 
G01 X34.1465 Y86.7248 
G01 X34.1754 Y86.9075 
G00 Z2.4000 
G00 X16.1754 Y34.9075 
G01 Z-0.1000 F50.00 
G01 X16.1754 Y35.0925 F100.00 
G01 X16.1465 Y35.2752 
G01 X16.0893 Y35.4512 
G01 X16.0053 Y35.6160 
G01 X15.8965 Y35.7657 
G01 X15.7657 Y35.8965 
G01 X15.6160 Y36.0053 
G01 X15.4512 Y36.0893 
G01 X15.2752 Y36.1465 
G01 X15.0925 Y36.1754 
G01 X14.9075 Y36.1754 
G01 X14.7248 Y36.1465 
G01 X14.5488 Y36.0893 
G01 X14.3840 Y36.0053 
G01 X14.2343 Y35.8965 
G01 X14.1035 Y35.7657 
G01 X13.9947 Y35.6160 
G01 X13.9107 Y35.4512 
G01 X13.8535 Y35.2752 
G01 X13.8246 Y35.0925 
G01 X13.8246 Y34.9075 
G01 X13.8535 Y34.7248 
G01 X13.9107 Y34.5488 
G01 X13.9947 Y34.3840 
G01 X14.1035 Y34.2343 
G01 X14.2343 Y34.1035 
G01 X14.3840 Y33.9947 
G01 X14.5488 Y33.9107 
G01 X14.7248 Y33.8535 
G01 X14.9075 Y33.8246 
G01 X15.0925 Y33.8246 
G01 X15.2752 Y33.8535 
G01 X15.4512 Y33.9107 
G01 X15.6160 Y33.9947 
G01 X15.7657 Y34.1035 
G01 X15.8965 Y34.2343 
G01 X16.0053 Y34.3840 
G01 X16.0893 Y34.5488 
G01 X16.1465 Y34.7248 
G01 X16.1754 Y34.9075 
G00 Z2.4000 
G00 X209.1754 Y106.9075 
G01 Z-0.1000 F50.00 
G01 X209.1754 Y107.0925 F100.00 
G01 X209.1465 Y107.2752 
G01 X209.0893 Y107.4512 
G01 X209.0053 Y107.6160 
G01 X208.8965 Y107.7657 
G01 X208.7657 Y107.8965 
G01 X208.6160 Y108.0053 
G01 X208.4512 Y108.0893 
G01 X208.2752 Y108.1465 
G01 X208.0925 Y108.1754 
G01 X207.9075 Y108.1754 
G01 X207.7248 Y108.1465 
G01 X207.5488 Y108.0893 
G01 X207.3840 Y108.0053 
G01 X207.2343 Y107.8965 
G01 X207.1035 Y107.7657 
G01 X206.9947 Y107.6160 
G01 X206.9107 Y107.4512 
G01 X206.8535 Y107.2752 
G01 X206.8246 Y107.0925 
G01 X206.8246 Y106.9075 
G01 X206.8535 Y106.7248 
G01 X206.9107 Y106.5488 
G01 X206.9947 Y106.3840 
G01 X207.1035 Y106.2343 
G01 X207.2343 Y106.1035 
G01 X207.3840 Y105.9947 
G01 X207.5488 Y105.9107 
G01 X207.7248 Y105.8535 
G01 X207.9075 Y105.8246 
G01 X208.0925 Y105.8246 
G01 X208.2752 Y105.8535 
G01 X208.4512 Y105.9107 
G01 X208.6160 Y105.9947 
G01 X208.7657 Y106.1035 
G01 X208.8965 Y106.2343 
G01 X209.0053 Y106.3840 
G01 X209.0893 Y106.5488 
G01 X209.1465 Y106.7248 
G01 X209.1754 Y106.9075 
G00 Z2.4000 
G00 X141.1754 Y23.9075 
G01 Z-0.1000 F50.00 
G01 X141.1754 Y24.0925 F100.00 
G01 X141.1465 Y24.2752 
G01 X141.0893 Y24.4512 
G01 X141.0053 Y24.6160 
G01 X140.8965 Y24.7657 
G01 X140.7657 Y24.8965 
G01 X140.6160 Y25.0053 
G01 X140.4512 Y25.0893 
G01 X140.2752 Y25.1465 
G01 X140.0925 Y25.1754 
G01 X139.9075 Y25.1754 
G01 X139.7248 Y25.1465 
G01 X139.5488 Y25.0893 
G01 X139.3840 Y25.0053 
G01 X139.2343 Y24.8965 
G01 X139.1035 Y24.7657 
G01 X138.9947 Y24.6160 
G01 X138.9107 Y24.4512 
G01 X138.8535 Y24.2752 
G01 X138.8246 Y24.0925 
G01 X138.8246 Y23.9075 
G01 X138.8535 Y23.7248 
G01 X138.9107 Y23.5488 
G01 X138.9947 Y23.3840 
G01 X139.1035 Y23.2343 
G01 X139.2343 Y23.1035 
G01 X139.3840 Y22.9947 
G01 X139.5488 Y22.9107 
G01 X139.7248 Y22.8535 
G01 X139.9075 Y22.8246 
G01 X140.0925 Y22.8246 
G01 X140.2752 Y22.8535 
G01 X140.4512 Y22.9107 
G01 X140.6160 Y22.9947 
G01 X140.7657 Y23.1035 
G01 X140.8965 Y23.2343 
G01 X141.0053 Y23.3840 
G01 X141.0893 Y23.5488 
G01 X141.1465 Y23.7248 
G01 X141.1754 Y23.9075 
G00 Z2.4000 
G00 X30.0843 Y106.8564 
G01 Z-0.1000 F50.00 
G01 X30.0675 Y106.8564 F100.00 
G01 X30.3547 Y107.1436 
G01 X91.6453 Y107.1436 
G01 X91.9325 Y106.8564 
G01 X30.0844 Y106.8564 
G00 Z2.4000 
G00 X25.4924 Y99.5374 
G01 Z-0.1000 F50.00 
G01 X25.4924 Y102.2813 F100.00 
G01 X25.7538 Y102.5427 
G01 X25.7538 Y99.6903 
G01 X25.7842 Y99.5374 
G01 X25.4924 Y99.5374 
G00 Z2.4000 
G00 X205.1681 Y48.0212 
G01 Z-0.1000 F50.00 
G01 X204.9878 Y47.8903 F100.00 
G01 X204.8303 Y47.7328 
G01 X204.6994 Y47.5525 
G01 X204.6398 Y47.4355 
G01 X204.5802 Y47.5525 
G01 X204.4492 Y47.7328 
G01 X204.2917 Y47.8903 
G01 X204.1115 Y48.0212 
G01 X203.9945 Y48.0808 
G01 X204.1115 Y48.1404 
G01 X204.2917 Y48.2714 
G01 X204.4492 Y48.4289 
G01 X204.5802 Y48.6091 
G01 X204.6398 Y48.7261 
G01 X204.6994 Y48.6091 
G01 X204.8303 Y48.4289 
G01 X204.9878 Y48.2714 
G01 X205.1681 Y48.1404 
G01 X205.2851 Y48.0808 
G01 X205.1681 Y48.0212 
G00 Z2.4000 
G00 X205.1681 Y53.1012 
G01 Z-0.1000 F50.00 
G01 X204.9878 Y52.9703 F100.00 
G01 X204.8303 Y52.8128 
G01 X204.6994 Y52.6325 
G01 X204.6398 Y52.5155 
G01 X204.5802 Y52.6325 
G01 X204.4492 Y52.8128 
G01 X204.2917 Y52.9703 
G01 X204.1115 Y53.1012 
G01 X203.9945 Y53.1608 
G01 X204.1115 Y53.2204 
G01 X204.2917 Y53.3514 
G01 X204.4492 Y53.5089 
G01 X204.5802 Y53.6891 
G01 X204.6398 Y53.8061 
G01 X204.6994 Y53.6891 
G01 X204.8303 Y53.5089 
G01 X204.9878 Y53.3514 
G01 X205.1681 Y53.2204 
G01 X205.2851 Y53.1608 
G01 X205.1681 Y53.1012 
G00 Z2.4000 
G00 X205.1681 Y58.1812 
G01 Z-0.1000 F50.00 
G01 X204.9878 Y58.0503 F100.00 
G01 X204.8303 Y57.8927 
G01 X204.6994 Y57.7125 
G01 X204.6398 Y57.5955 
G01 X204.5802 Y57.7125 
G01 X204.4492 Y57.8927 
G01 X204.2917 Y58.0503 
G01 X204.1115 Y58.1812 
G01 X203.9945 Y58.2408 
G01 X204.1115 Y58.3004 
G01 X204.2917 Y58.4314 
G01 X204.4492 Y58.5889 
G01 X204.5802 Y58.7691 
G01 X204.6398 Y58.8861 
G01 X204.6994 Y58.7691 
G01 X204.8303 Y58.5889 
G01 X204.9878 Y58.4314 
G01 X205.1681 Y58.3004 
G01 X205.2851 Y58.2408 
G01 X205.1681 Y58.1812 
G00 Z2.4000 
G00 X205.1681 Y63.2612 
G01 Z-0.1000 F50.00 
G01 X204.9878 Y63.1303 F100.00 
G01 X204.8303 Y62.9728 
G01 X204.6994 Y62.7925 
G01 X204.6398 Y62.6755 
G01 X204.5802 Y62.7925 
G01 X204.4492 Y62.9728 
G01 X204.2917 Y63.1303 
G01 X204.1115 Y63.2612 
G01 X203.9945 Y63.3208 
G01 X204.1115 Y63.3804 
G01 X204.2917 Y63.5114 
G01 X204.4492 Y63.6689 
G01 X204.5802 Y63.8491 
G01 X204.6398 Y63.9661 
G01 X204.6994 Y63.8491 
G01 X204.8303 Y63.6689 
G01 X204.9878 Y63.5114 
G01 X205.1681 Y63.3804 
G01 X205.2851 Y63.3208 
G01 X205.1681 Y63.2612 
G00 Z2.4000 
G00 X205.1681 Y68.3412 
G01 Z-0.1000 F50.00 
G01 X204.9878 Y68.2103 F100.00 
G01 X204.8303 Y68.0528 
G01 X204.6994 Y67.8725 
G01 X204.6398 Y67.7555 
G01 X204.5802 Y67.8725 
G01 X204.4492 Y68.0528 
G01 X204.2917 Y68.2103 
G01 X204.1115 Y68.3412 
G01 X203.9945 Y68.4008 
G01 X204.1115 Y68.4604 
G01 X204.2917 Y68.5914 
G01 X204.4492 Y68.7489 
G01 X204.5802 Y68.9291 
G01 X204.6398 Y69.0461 
G01 X204.6994 Y68.9291 
G01 X204.8303 Y68.7489 
G01 X204.9878 Y68.5914 
G01 X205.1681 Y68.4604 
G01 X205.2851 Y68.4008 
G01 X205.1681 Y68.3412 
G00 Z2.4000 
G00 X205.1681 Y73.4212 
G01 Z-0.1000 F50.00 
G01 X204.9878 Y73.2903 F100.00 
G01 X204.8303 Y73.1328 
G01 X204.6994 Y72.9525 
G01 X204.6398 Y72.8355 
G01 X204.5802 Y72.9525 
G01 X204.4492 Y73.1328 
G01 X204.2917 Y73.2903 
G01 X204.1115 Y73.4212 
G01 X203.9945 Y73.4808 
G01 X204.1115 Y73.5404 
G01 X204.2917 Y73.6714 
G01 X204.4492 Y73.8289 
G01 X204.5802 Y74.0091 
G01 X204.6398 Y74.1261 
G01 X204.6994 Y74.0091 
G01 X204.8303 Y73.8289 
G01 X204.9878 Y73.6714 
G01 X205.1681 Y73.5404 
G01 X205.2851 Y73.4808 
G01 X205.1681 Y73.4212 
G00 Z2.4000 
G00 X204.5802 Y29.7725 
G01 Z-0.1000 F50.00 
G01 X204.4492 Y29.9528 F100.00 
G01 X204.2917 Y30.1103 
G01 X204.1115 Y30.2412 
G01 X203.9945 Y30.3008 
G01 X204.1115 Y30.3604 
G01 X204.2917 Y30.4914 
G01 X204.4492 Y30.6489 
G01 X204.5802 Y30.8291 
G01 X204.6398 Y30.9461 
G01 X204.6994 Y30.8291 
G01 X204.8303 Y30.6489 
G01 X204.9878 Y30.4914 
G01 X205.1681 Y30.3604 
G01 X205.2851 Y30.3008 
G01 X205.1681 Y30.2412 
G01 X204.9878 Y30.1103 
G01 X204.8303 Y29.9528 
G01 X204.6994 Y29.7725 
G01 X204.6398 Y29.6555 
G01 X204.5802 Y29.7725 
G00 Z2.4000 
G00 X204.5802 Y32.3125 
G01 Z-0.1000 F50.00 
G01 X204.4492 Y32.4928 F100.00 
G01 X204.2917 Y32.6503 
G01 X204.1115 Y32.7812 
G01 X203.9945 Y32.8408 
G01 X204.1115 Y32.9004 
G01 X204.2917 Y33.0314 
G01 X204.4492 Y33.1889 
G01 X204.5802 Y33.3691 
G01 X204.6398 Y33.4861 
G01 X204.6994 Y33.3691 
G01 X204.8303 Y33.1889 
G01 X204.9878 Y33.0314 
G01 X205.1681 Y32.9004 
G01 X205.2851 Y32.8408 
G01 X205.1681 Y32.7812 
G01 X204.9878 Y32.6503 
G01 X204.8303 Y32.4928 
G01 X204.6994 Y32.3125 
G01 X204.6398 Y32.1955 
G01 X204.5802 Y32.3125 
G00 Z2.4000 
G00 X204.5802 Y34.8525 
G01 Z-0.1000 F50.00 
G01 X204.4492 Y35.0328 F100.00 
G01 X204.2917 Y35.1903 
G01 X204.1115 Y35.3212 
G01 X203.9945 Y35.3808 
G01 X204.1115 Y35.4404 
G01 X204.2917 Y35.5714 
G01 X204.4492 Y35.7289 
G01 X204.5802 Y35.9091 
G01 X204.6398 Y36.0261 
G01 X204.6994 Y35.9091 
G01 X204.8303 Y35.7289 
G01 X204.9878 Y35.5714 
G01 X205.1681 Y35.4404 
G01 X205.2851 Y35.3808 
G01 X205.1681 Y35.3212 
G01 X204.9878 Y35.1903 
G01 X204.8303 Y35.0328 
G01 X204.6994 Y34.8525 
G01 X204.6398 Y34.7355 
G01 X204.5802 Y34.8525 
G00 Z2.4000 
G00 X204.5802 Y37.3925 
G01 Z-0.1000 F50.00 
G01 X204.4492 Y37.5727 F100.00 
G01 X204.2917 Y37.7303 
G01 X204.1115 Y37.8612 
G01 X203.9945 Y37.9208 
G01 X204.1115 Y37.9804 
G01 X204.2917 Y38.1114 
G01 X204.4492 Y38.2689 
G01 X204.5802 Y38.4491 
G01 X204.6398 Y38.5661 
G01 X204.6994 Y38.4491 
G01 X204.8303 Y38.2689 
G01 X204.9878 Y38.1114 
G01 X205.1681 Y37.9804 
G01 X205.2851 Y37.9208 
G01 X205.1681 Y37.8612 
G01 X204.9878 Y37.7303 
G01 X204.8303 Y37.5727 
G01 X204.6994 Y37.3925 
G01 X204.6398 Y37.2755 
G01 X204.5802 Y37.3925 
G00 Z2.4000 
G00 X204.5802 Y39.9325 
G01 Z-0.1000 F50.00 
G01 X204.4492 Y40.1128 F100.00 
G01 X204.2917 Y40.2703 
G01 X204.1115 Y40.4012 
G01 X203.9945 Y40.4608 
G01 X204.1115 Y40.5204 
G01 X204.2917 Y40.6514 
G01 X204.4492 Y40.8089 
G01 X204.5802 Y40.9891 
G01 X204.6398 Y41.1061 
G01 X204.6994 Y40.9891 
G01 X204.8303 Y40.8089 
G01 X204.9878 Y40.6514 
G01 X205.1681 Y40.5204 
G01 X205.2851 Y40.4608 
G01 X205.1681 Y40.4012 
G01 X204.9878 Y40.2703 
G01 X204.8303 Y40.1128 
G01 X204.6994 Y39.9325 
G01 X204.6398 Y39.8155 
G01 X204.5802 Y39.9325 
G00 Z2.4000 
G00 X204.5802 Y42.4725 
G01 Z-0.1000 F50.00 
G01 X204.4492 Y42.6528 F100.00 
G01 X204.2917 Y42.8103 
G01 X204.1115 Y42.9412 
G01 X203.9945 Y43.0008 
G01 X204.1115 Y43.0604 
G01 X204.2917 Y43.1914 
G01 X204.4492 Y43.3489 
G01 X204.5802 Y43.5291 
G01 X204.6398 Y43.6461 
G01 X204.6994 Y43.5291 
G01 X204.8303 Y43.3489 
G01 X204.9878 Y43.1914 
