(.../pcb-gcode-3.6.0.4/pcb-gcode.ulp)
(Copyright 2005 - 2012 by John Johnson)
(See readme.txt for licensing terms.)
(This file generated from the board:)
(.../projects/J2 Retrofit/J2 Retrofit.brd)
(Current profile is .../pcb-gcode-3.6.0.4/profiles/generic.pp  )
(This file generated 6/25/2019 11:16 AM)
(Settings from pcb-machine.h)
(  Tool Size)
(0.3000 )
(Z Axis Settings)
(  High     Up        Down     Drill)
(12.7000 	2.4000 	-0.1000 	-1.7000 )
(spindle on time = 3.0000)
(milling depth = -0.2540)
(text depth = -0.1270)
(tool change at 0.0000 -12.0000 20.0000 )
(feed rate xy = F100.00 )
(feed rate z  = F50.00 )
(Settings from pcb-defaults.h)
(isolate min = 0.0254)
(isolate max = 0.3000)
(isolate step = 0.3000)
(Generated top outlines, top drill, bottom drill, )
(Unit of measure: mm)
( Tool|       Size       |  Min Sub |  Max Sub |   Count )
( T01  4.000mm 0.1575in 0.0000in 0.0000in )
( T02  0.800mm 0.0315in 0.0000in 0.0000in )
( T03  0.813mm 0.0320in 0.0000in 0.0000in )
( T04  1.000mm 0.0394in 0.0000in 0.0000in )
( T05  1.016mm 0.0400in 0.0000in 0.0000in )
( T06  1.118mm 0.0440in 0.0000in 0.0000in )
( T07  1.200mm 0.0472in 0.0000in 0.0000in )
( T08  1.500mm 0.0591in 0.0000in 0.0000in )
( T09  2.750mm 0.1083in 0.0000in 0.0000in )
( T10  3.000mm 0.1181in 0.0000in 0.0000in )
(Metric Mode)
G21
(Absolute Coordinates)
G90
M05
G00 Z20.0000 
G00 X0.0000 Y-12.0000 
M06 T01  ; 4.0000 
G01 Z0.0000 F50.00 
M06 T01  ; 4.0000 
G00 Z2.4000 
M03
G04 P3.000000
G00 Z2.400000
G00 X37.0000 Y112.1000 
G01 Z-1.7000 F50.00 
G01 Z2.400000
(R2.4000  P1.000000)
(G00 Z2.400000)
G00 X38.9000 Y46.4000 
G01 Z-1.700000
G01 Z2.400000
(G00 Z2.400000)
G00 X84.5000 Y44.6000 
G01 Z-1.700000
G01 Z2.400000
(G00 Z2.400000)
G00 X85.0000 Y112.0000 
G01 Z-1.700000
G01 Z2.400000
(G00 Z2.400000)
G00 X213.5000 Y119.0000 
G01 Z-1.700000
G01 Z2.400000
(G00 Z2.400000)
G00 X213.5000 Y25.0000 
G01 Z-1.700000
G01 Z2.400000
(G00 Z2.400000)
G00 X3.0000 Y119.0000 
G01 Z-1.700000
G01 Z2.400000
(G00 Z2.400000)
G00 X3.0000 Y26.0000 
G01 Z-1.700000
G01 Z2.400000
M05
G00 Z20.0000 
M06 T02  ; 0.8000 
G01 Z0.0000 F50.00 
M06 T02  ; 0.8000 
G00 Z2.4000 
M03
G04 P3.000000
G00 Z2.400000
G00 X42.7000 Y9.6000 
G01 Z-1.7000 F50.00 
G01 Z2.400000
(R2.4000  P1.000000)
(G00 Z2.400000)
G00 X47.5000 Y6.6000 
G01 Z-1.700000
G01 Z2.400000
(G00 Z2.400000)
G00 X109.8000 Y9.8000 
G01 Z-1.700000
G01 Z2.400000
(G00 Z2.400000)
G00 X114.6000 Y6.8000 
G01 Z-1.700000
G01 Z2.400000
M05
G00 Z20.0000 
M06 T03  ; 0.8128 
G01 Z0.0000 F50.00 
M06 T03  ; 0.8128 
G00 Z2.4000 
M03
G04 P3.000000
G00 Z2.400000
G00 X103.3700 Y40.2600 
G01 Z-1.7000 F50.00 
G01 Z2.400000
(R2.4000  P1.000000)
(G00 Z2.400000)
G00 X103.3700 Y42.8000 
G01 Z-1.700000
G01 Z2.400000
(G00 Z2.400000)
G00 X103.3700 Y45.3400 
G01 Z-1.700000
G01 Z2.400000
(G00 Z2.400000)
G00 X114.9200 Y28.0000 
G01 Z-1.700000
G01 Z2.400000
(G00 Z2.400000)
G00 X125.0800 Y28.0000 
G01 Z-1.700000
G01 Z2.400000
M05
G00 Z20.0000 
M06 T04  ; 1.0000 
G01 Z0.0000 F50.00 
M06 T04  ; 1.0000 
G00 Z2.4000 
M03
G04 P3.000000
G00 Z2.400000
G00 X47.5000 Y12.6000 
G01 Z-1.7000 F50.00 
G01 Z2.400000
(R2.4000  P1.000000)
(G00 Z2.400000)
G00 X87.7900 Y36.4800 
G01 Z-1.700000
G01 Z2.400000
(G00 Z2.400000)
G00 X87.7900 Y24.4800 
G01 Z-1.700000
G01 Z2.400000
(G00 Z2.400000)
G00 X92.0000 Y60.0000 
G01 Z-1.700000
G01 Z2.400000
(G00 Z2.400000)
G00 X98.0000 Y60.0000 
G01 Z-1.700000
G01 Z2.400000
(G00 Z2.400000)
G00 X99.7900 Y36.4800 
G01 Z-1.700000
G01 Z2.400000
(G00 Z2.400000)
G00 X99.7900 Y24.4800 
G01 Z-1.700000
G01 Z2.400000
(G00 Z2.400000)
G00 X101.7900 Y30.4800 
G01 Z-1.700000
G01 Z2.400000
(G00 Z2.400000)
G00 X114.6000 Y12.8000 
G01 Z-1.700000
G01 Z2.400000
M05
G00 Z20.0000 
M06 T05  ; 1.0160 
G01 Z0.0000 F50.00 
M06 T05  ; 1.0160 
G00 Z2.4000 
M03
G04 P3.000000
G00 Z2.400000
G00 X203.3698 Y31.5708 
G01 Z-1.7000 F50.00 
G01 Z2.400000
(R2.4000  P1.000000)
(G00 Z2.400000)
G00 X203.3698 Y34.1108 
G01 Z-1.700000
G01 Z2.400000
(G00 Z2.400000)
G00 X203.3698 Y36.6508 
G01 Z-1.700000
G01 Z2.400000
(G00 Z2.400000)
G00 X203.3698 Y39.1908 
G01 Z-1.700000
G01 Z2.400000
(G00 Z2.400000)
G00 X203.3698 Y41.7308 
G01 Z-1.700000
G01 Z2.400000
(G00 Z2.400000)
G00 X203.3698 Y44.2708 
G01 Z-1.700000
G01 Z2.400000
(G00 Z2.400000)
G00 X203.3698 Y46.8108 
G01 Z-1.700000
G01 Z2.400000
(G00 Z2.400000)
G00 X203.3698 Y49.3508 
G01 Z-1.700000
G01 Z2.400000
(G00 Z2.400000)
G00 X203.3698 Y51.8908 
G01 Z-1.700000
G01 Z2.400000
(G00 Z2.400000)
G00 X203.3698 Y54.4308 
G01 Z-1.700000
G01 Z2.400000
(G00 Z2.400000)
G00 X203.3698 Y56.9708 
G01 Z-1.700000
G01 Z2.400000
(G00 Z2.400000)
G00 X203.3698 Y59.5108 
G01 Z-1.700000
G01 Z2.400000
(G00 Z2.400000)
G00 X203.3698 Y62.0508 
G01 Z-1.700000
G01 Z2.400000
(G00 Z2.400000)
G00 X203.3698 Y64.5908 
G01 Z-1.700000
G01 Z2.400000
(G00 Z2.400000)
G00 X203.3698 Y67.1308 
G01 Z-1.700000
G01 Z2.400000
(G00 Z2.400000)
G00 X203.3698 Y69.6708 
G01 Z-1.700000
G01 Z2.400000
(G00 Z2.400000)
G00 X203.3698 Y72.2108 
G01 Z-1.700000
G01 Z2.400000
(G00 Z2.400000)
G00 X203.3698 Y74.7508 
G01 Z-1.700000
G01 Z2.400000
(G00 Z2.400000)
G00 X203.3698 Y77.2908 
G01 Z-1.700000
G01 Z2.400000
(G00 Z2.400000)
G00 X203.3698 Y29.0308 
G01 Z-1.700000
G01 Z2.400000
(G00 Z2.400000)
G00 X205.9098 Y31.5708 
G01 Z-1.700000
G01 Z2.400000
(G00 Z2.400000)
G00 X205.9098 Y34.1108 
G01 Z-1.700000
G01 Z2.400000
(G00 Z2.400000)
G00 X205.9098 Y36.6508 
G01 Z-1.700000
G01 Z2.400000
(G00 Z2.400000)
G00 X205.9098 Y39.1908 
G01 Z-1.700000
G01 Z2.400000
(G00 Z2.400000)
G00 X205.9098 Y41.7308 
G01 Z-1.700000
G01 Z2.400000
(G00 Z2.400000)
G00 X205.9098 Y44.2708 
G01 Z-1.700000
G01 Z2.400000
(G00 Z2.400000)
G00 X205.9098 Y46.8108 
G01 Z-1.700000
G01 Z2.400000
(G00 Z2.400000)
G00 X205.9098 Y49.3508 
G01 Z-1.700000
G01 Z2.400000
(G00 Z2.400000)
G00 X205.9098 Y51.8908 
G01 Z-1.700000
G01 Z2.400000
(G00 Z2.400000)
G00 X205.9098 Y54.4308 
G01 Z-1.700000
G01 Z2.400000
(G00 Z2.400000)
G00 X205.9098 Y56.9708 
G01 Z-1.700000
G01 Z2.400000
(G00 Z2.400000)
G00 X205.9098 Y59.5108 
G01 Z-1.700000
G01 Z2.400000
(G00 Z2.400000)
G00 X205.9098 Y62.0508 
G01 Z-1.700000
G01 Z2.400000
(G00 Z2.400000)
G00 X205.9098 Y64.5908 
G01 Z-1.700000
G01 Z2.400000
(G00 Z2.400000)
G00 X205.9098 Y67.1308 
G01 Z-1.700000
G01 Z2.400000
(G00 Z2.400000)
G00 X205.9098 Y69.6708 
G01 Z-1.700000
G01 Z2.400000
(G00 Z2.400000)
G00 X205.9098 Y72.2108 
G01 Z-1.700000
G01 Z2.400000
(G00 Z2.400000)
G00 X205.9098 Y74.7508 
G01 Z-1.700000
G01 Z2.400000
(G00 Z2.400000)
G00 X205.9098 Y77.2908 
G01 Z-1.700000
G01 Z2.400000
(G00 Z2.400000)
G00 X205.9098 Y29.0308 
G01 Z-1.700000
G01 Z2.400000
M05
G00 Z20.0000 
M06 T06  ; 1.1176 
G01 Z0.0000 F50.00 
M06 T06  ; 1.1176 
G00 Z2.4000 
M03
G04 P3.000000
G00 Z2.400000
G00 X88.6200 Y40.5000 
G01 Z-1.7000 F50.00 
G01 Z2.400000
(R2.4000  P1.000000)
(G00 Z2.400000)
G00 X98.7800 Y40.5000 
G01 Z-1.700000
G01 Z2.400000
M05
G00 Z20.0000 
M06 T07  ; 1.2000 
G01 Z0.0000 F50.00 
M06 T07  ; 1.2000 
G00 Z2.4000 
M03
G04 P3.000000
G00 Z2.400000
G00 X33.0000 Y87.0000 
G01 Z-1.7000 F50.00 
G01 Z2.400000
(R2.4000  P1.000000)
(G00 Z2.400000)
G00 X99.0000 Y88.0000 
G01 Z-1.700000
G01 Z2.400000
(G00 Z2.400000)
G00 X132.3960 Y75.7290 
G01 Z-1.700000
G01 Z2.400000
(G00 Z2.400000)
G00 X132.3960 Y94.2710 
G01 Z-1.700000
G01 Z2.400000
(G00 Z2.400000)
G00 X134.9360 Y75.7290 
G01 Z-1.700000
G01 Z2.400000
(G00 Z2.400000)
G00 X134.9360 Y94.2710 
G01 Z-1.700000
G01 Z2.400000
(G00 Z2.400000)
G00 X140.0000 Y24.0000 
G01 Z-1.700000
G01 Z2.400000
(G00 Z2.400000)
G00 X143.0640 Y75.7290 
G01 Z-1.700000
G01 Z2.400000
(G00 Z2.400000)
G00 X143.0640 Y94.2710 
G01 Z-1.700000
G01 Z2.400000
(G00 Z2.400000)
G00 X145.6040 Y75.7290 
G01 Z-1.700000
G01 Z2.400000
(G00 Z2.400000)
G00 X145.6040 Y94.2710 
G01 Z-1.700000
G01 Z2.400000
(G00 Z2.400000)
G00 X15.0000 Y35.0000 
G01 Z-1.700000
G01 Z2.400000
(G00 Z2.400000)
G00 X15.0000 Y115.0000 
G01 Z-1.700000
G01 Z2.400000
(G00 Z2.400000)
G00 X167.3960 Y78.7290 
G01 Z-1.700000
G01 Z2.400000
(G00 Z2.400000)
G00 X167.3960 Y97.2710 
G01 Z-1.700000
G01 Z2.400000
(G00 Z2.400000)
G00 X169.9360 Y78.7290 
G01 Z-1.700000
G01 Z2.400000
(G00 Z2.400000)
G00 X169.9360 Y97.2710 
G01 Z-1.700000
G01 Z2.400000
(G00 Z2.400000)
G00 X178.0000 Y24.0000 
G01 Z-1.700000
G01 Z2.400000
(G00 Z2.400000)
G00 X178.0640 Y78.7290 
G01 Z-1.700000
G01 Z2.400000
(G00 Z2.400000)
G00 X178.0640 Y97.2710 
G01 Z-1.700000
G01 Z2.400000
(G00 Z2.400000)
G00 X180.6040 Y78.7290 
G01 Z-1.700000
G01 Z2.400000
(G00 Z2.400000)
G00 X180.6040 Y97.2710 
G01 Z-1.700000
G01 Z2.400000
(G00 Z2.400000)
G00 X208.0000 Y107.0000 
G01 Z-1.700000
G01 Z2.400000
(G00 Z2.400000)
G00 X214.6000 Y52.1000 
G01 Z-1.700000
G01 Z2.400000
M05
G00 Z20.0000 
M06 T08  ; 1.5000 
G01 Z0.0000 F50.00 
M06 T08  ; 1.5000 
G00 Z2.4000 
M03
G04 P3.000000
G00 Z2.400000
G00 X7.3640 Y58.1880 
G01 Z-1.7000 F50.00 
G01 Z2.400000
(R2.4000  P1.000000)
(G00 Z2.400000)
G00 X7.3640 Y97.8120 
G01 Z-1.700000
G01 Z2.400000
(G00 Z2.400000)
G00 X24.6360 Y58.1880 
G01 Z-1.700000
G01 Z2.400000
(G00 Z2.400000)
G00 X24.6360 Y97.8120 
G01 Z-1.700000
G01 Z2.400000
M05
G00 Z20.0000 
M06 T09  ; 2.7500 
G01 Z0.0000 F50.00 
M06 T09  ; 2.7500 
G00 Z2.4000 
M03
G04 P3.000000
G00 Z2.400000
G00 X155.6387 Y82.1050 
G01 Z-1.7000 F50.00 
G01 Z2.400000
(R2.4000  P1.000000)
(G00 Z2.400000)
G00 X155.6387 Y24.1050 
G01 Z-1.700000
G01 Z2.400000
(G00 Z2.400000)
G00 X204.6387 Y82.1050 
G01 Z-1.700000
G01 Z2.400000
(G00 Z2.400000)
G00 X204.6387 Y24.1050 
G01 Z-1.700000
G01 Z2.400000
M05
G00 Z20.0000 
M06 T10  ; 3.0000 
G01 Z0.0000 F50.00 
M06 T10  ; 3.0000 
G00 Z2.4000 
M03
G04 P3.000000
G00 Z2.400000
G00 X8.3800 Y93.2400 
G01 Z-1.7000 F50.00 
G01 Z2.400000
(R2.4000  P1.000000)
(G00 Z2.400000)
G00 X23.6200 Y63.5220 
G01 Z-1.700000
G01 Z2.400000
T01 
G00 Z12.7000 
M05
M02
